!!!!SEGMENT: pl-wtm--r-1436_stefani-jozef--polonez.krn
!!!cenid: 18xx:2456
!!!COM: Stefani, Józef
!!!COM-rismid: pe30024097
!!!CDT: 1800/04/16-1876/03/19
!!!CNT: Polish
!!!OTL: Polonez
!!!PDT:
!!!AGN: Secular; Polonaise
!!!SMS-siglum: PL-Wtm
!!!SMS-shelfmark: R 1436
!!!SMS-shelfwork: W
!!!SMS-variant:
!!!SMS-altvar:
!!!NIFC-rismid: 1001116272
!!!URL-scan: http://repozytorium.nifc.pl/skany/pl-wtm-nut--r1436
!!!ONB-nifc:
!!!OMD: Polonez
**kern	**dynam	**kern	**dynam	**kern	**dynam	**kern	**dynam	**kern	**dynam	**kern	**dynam	**kern	**kern	**text	**kern	**dynam	**kern	**dynam	**kern	**dynam	**kern	**dynam	**kern	**dynam	**kern	**dynam	**kern	**dynam	**kern	**dynam	**kern	**dynam	**kern	**dynam
*part18	*part18	*part17	*part17	*part16	*part16	*part15	*part15	*part14	*part14	*part13	*part13	*part12	*part11	*part11	*part10	*part10	*part9	*part9	*part8	*part8	*part7	*part7	*part6	*part6	*part5	*part5	*part4	*part4	*part3	*part3	*part2	*part2	*part1	*part1
*staff18	*	*staff17	*	*staff16	*	*staff15	*	*staff14	*	*staff13	*	*staff12	*staff11	*staff11	*staff10	*	*staff9	*	*staff8	*	*staff7	*	*staff6	*	*staff5	*	*staff4	*	*staff3	*	*staff2	*	*staff1	*
*	*	*	*	*	*	*	*	*	*	*	*	*""Choro	*""Choro	*	*	*	*	*	*	*	*	*	*	*	*	*	*	*	*	*	*	*	*	*
*Icbass	*	*Icello	*	*Iviola	*	*Ivioln	*	*Ivioln	*	*Itimp	*	*Iempty	*Itenor	*	*Itromt	*	*Itromt	*	*Itromp	*	*Ifagot	*	*Icor	*	*Icor	*	*Iclars	*	*Ioboe	*	*Ipicco	*	*Iflt	*
*I"C: Baſsi	*	*I"Violoncelli	*	*I"Viole	*	*I"Violini	*	*I"Violini	*	*I"in F.B. Timpani	*	*I"Baſsi	*I"Tenori	*	*I"Tromboni	*	*I"Tromboni	*	*I"in C Trombe	*	*I"Fagotti	*	*I"in Es Corni	*	*I"in B. Corni	*	*I"in B Clarinetti	*	*I"Oboe	*	*I"F. Picolo	*	*I"Flauto	*
*clefF4	*	*clefF4	*	*clefC3	*	*clefG2	*	*clefG2	*	*clefF4	*	*clefF4	*clefC4	*	*clefF4	*	*clefC4	*	*clefG2	*	*clefF4	*	*clefG2	*	*clefG2	*	*clefG2	*	*clefG2	*	*clefG2	*	*clefG2	*
*ITrd0c0	*	*	*	*	*	*	*	*	*	*	*	*	*	*	*	*	*	*	*	*	*	*	*ITrd-2c-3	*	*ITrd1c2	*	*ITrd1c2	*	*	*	*ITrd0c0	*	*	*
*k[b-e-]	*	*k[b-e-]	*	*k[b-e-]	*	*k[b-e-]	*	*k[b-e-]	*	*k[b-e-]	*	*k[b-e-]	*k[b-e-]	*	*k[b-e-]	*	*k[b-e-]	*	*k[b-e-]	*	*k[b-e-]	*	*k[b-e-]	*	*k[b-e-]	*	*k[b-e-]	*	*k[b-e-]	*	*k[b-e-]	*	*k[b-e-]	*
*>[A,B,A,B,C,B,D,E,D,E,F,E,B,G]	*	*>[A,B,A,B,C,B,D,E,D,E,F,E,B,G]	*	*>[A,B,A,B,C,B,D,E,D,E,F,E,B,G]	*	*>[A,B,A,B,C,B,D,E,D,E,F,E,B,G]	*	*>[A,B,A,B,C,B,D,E,D,E,F,E,B,G]	*	*>[A,B,A,B,C,B,D,E,D,E,F,E,B,G]	*	*>[A,B,A,B,C,B,D,E,D,E,F,E,B,G]	*>[A,B,A,B,C,B,D,E,D,E,F,E,B,G]	*	*>[A,B,A,B,C,B,D,E,D,E,F,E,B,G]	*	*>[A,B,A,B,C,B,D,E,D,E,F,E,B,G]	*	*>[A,B,A,B,C,B,D,E,D,E,F,E,B,G]	*	*>[A,B,A,B,C,B,D,E,D,E,F,E,B,G]	*	*>[A,B,A,B,C,B,D,E,D,E,F,E,B,G]	*	*>[A,B,A,B,C,B,D,E,D,E,F,E,B,G]	*	*>[A,B,A,B,C,B,D,E,D,E,F,E,B,G]	*	*>[A,B,A,B,C,B,D,E,D,E,F,E,B,G]	*	*>[A,B,A,B,C,B,D,E,D,E,F,E,B,G]	*	*>[A,B,A,B,C,B,D,E,D,E,F,E,B,G]	*
*B-:	*	*B-:	*	*B-:	*	*B-:	*	*B-:	*	*B-:	*	*B-:	*B-:	*	*B-:	*	*B-:	*	*B-:	*	*B-:	*	*B-:	*	*	*	*	*	*B-:	*	*B-:	*	*B-:	*
*M3/4	*	*M3/4	*	*M3/4	*	*M3/4	*	*M3/4	*	*M3/4	*	*M3/4	*M3/4	*	*M3/4	*	*M3/4	*	*M3/4	*	*M3/4	*	*M3/4	*	*M3/4	*	*M3/4	*	*M3/4	*	*M3/4	*	*M3/4	*
=1	=1	=1	=1	=1	=1	=1	=1	=1	=1	=1	=1	=1	=1	=1	=1	=1	=1	=1	=1	=1	=1	=1	=1	=1	=1	=1	=1	=1	=1	=1	=1	=1	=1	=1
*>A	*	*>A	*	*>A	*	*>A	*	*>A	*	*>A	*	*>A	*>A	*	*>A	*	*>A	*	*>A	*	*>A	*	*>A	*	*>A	*	*>A	*	*>A	*	*>A	*	*>A	*
*all\right	*	*all\right	*	*all\right	*	*all\right	*	*all\right	*	*all\right	*	*all\right	*all\right	*	*all\right	*	*all\right	*	*all\right	*	*all\right	*	*all\right	*	*all\right	*	*all\right	*	*all\right	*	*all\right	*	*all\right	*
!	!	!LO:TX:t=P:problem:partia wiolonczeli wpisana tylko tam, gdzie się różni od Ctb	!	!LO:TX:b:t=col b.	!	!LO:TX:b:t=Uniſ	!	!	!	!	!	!	!	!	!LO:DY:rj	!	!	!	!	!	!LO:TX:a:t=Col b&colon;	!	!	!	!	!	!	!	!	!	!	!	!LO:TX:a:B:t=Polonez	!
8B-|\L	.	8B-|\Lyy	.	8B-|/Lyy	.	8b-\Lyy	fY	8b-\L	f	2.r	.	2.r	2.r	.	8BB-/	.	8B-\	f	2.r	.	8B-|\Lyy	.	2.r	.	2.r	.	(>8b-\L	.	8b-/L	.	8bb-\L	f	8bb-\L	f
(32d\LL	.	(y32d\LLyy	.	(y32d/LLyy	.	(y>32dd\LLyy	.	(>32dd\LL	.	.	.	.	.	.	8r	.	8r	.	.	.	(y32d\LLyy	.	.	.	.	.	32dd\LL	.	(32dd/LL	.	(32ddd\LL	.	(32ddd\LL	.
32c\	.	32c\yy	.	32c/yy	.	32cc\yy	.	32cc\	.	.	.	.	.	.	.	.	.	.	.	.	32c\yy	.	.	.	.	.	32cc\	.	32cc/	.	32ccc\	.	32ccc\	.
32B-\	.	32B-\yy	.	32B-/yy	.	32b-\yy	.	32b-\	.	.	.	.	.	.	.	.	.	.	.	.	32B-\yy	.	.	.	.	.	32b-\	.	32b-/	.	32bb-\	.	32bb-\	.
32A\JJJ	.	32A\JJJyy	.	32A/JJJyy	.	32a\JJJyy	.	32a\JJJ	.	.	.	.	.	.	.	.	.	.	.	.	32A\JJJyy	.	.	.	.	.	32a\JJJ	.	32a/JJJ	.	32aa\JJJ	.	32aa\JJJ	.
4.G\)	.	4.G\)yy	.	4.G/)yy	.	4.g/yy	.	4.g/	.	.	.	.	.	.	4.G\	.	4.g\	.	.	.	4.G\)yy	.	.	.	.	.	4.g/	.	4.g/)	.	4.gg\)	.	4.gg\)	.
8F\	.	8F\yy	.	8F/yy	.	8f/)yy	.	8f/)	.	.	.	.	.	.	8F\	.	8f\	.	.	.	8F\yy	.	.	.	.	.	8f/)	.	8f/	.	8ff\	.	8ff\	.
=2	=2	=2	=2	=2	=2	=2	=2	=2	=2	=2	=2	=2	=2	=2	=2	=2	=2	=2	=2	=2	=2	=2	=2	=2	=2	=2	=2	=2	=2	=2	=2	=2	=2	=2
!	!	!	!	!	!	!	!	!	!	!	!	!	!	!	!	!	!	!	!	!	!	!	!	!	!	!	!	!	!LO:TX:t=P:problem:mixed beam	!	!	!	!	!
8E-\L	.	8E-\Lyy	.	8E-/Lyy	.	(y8e-/Lyy	.	(8e-/L	.	2.r	.	2.r	2.r	.	8E-\	.	8e-\	.	2.r	.	8E-\Lyy	.	2.r	.	2.r	.	8e-/L	.	8e-/L	.	8ee-\L	.	8ee-\L	.
(>32G\LL	.	(y>32G\LLyy	.	(y32G/LLyy	.	32g/LLyy	.	32g/LL	.	.	.	.	.	.	8r	.	8r	.	.	.	(y32G\LLyy	.	.	.	.	.	(32g/LL	.	(32gg\LL	.	(32gg\LL	.	(32ggg\LL	.
32F\	.	32F\yy	.	32F/yy	.	32f/yy	.	32f/	.	.	.	.	.	.	.	.	.	.	.	.	32F\yy	.	.	.	.	.	32f/	.	32ff\	.	32ff\	.	32fff\	.
32E-\	.	32E-\yy	.	32E-/yy	.	32e-/yy	.	32e-/	.	.	.	.	.	.	.	.	.	.	.	.	32E-\yy	.	.	.	.	.	32e-/	.	32ee-\	.	32ee-\	.	32eee-\	.
32D\JJJ	.	32D\JJJyy	.	32D/JJJyy	.	32d/JJJyy	.	32d/JJJ	.	.	.	.	.	.	.	.	.	.	.	.	32D\JJJyy	.	.	.	.	.	32d/JJJ)	.	32dd\JJJ	.	32dd\JJJ	.	32ddd\JJJ	.
4.C/	.	4.C/yy	.	4.C/yy	.	4.c/)yy	.	4.c/)	.	.	.	.	.	.	4.C/	.	4.c\	.	.	.	4.C/yy	.	.	.	.	.	4.c/	.	4.cc\)	.	4.cc\)	.	4.ccc\)	.
8BB-/)	.	8BB-/)yy	.	8BB-/)yy	.	8B-/yy	.	8B-/	.	.	.	.	.	.	8BB-/	.	8B-\	.	.	.	8BB-/)yy	.	.	.	.	.	8B-/	.	8b-\	.	8b-\	.	8bb-\	.
=3	=3	=3	=3	=3	=3	=3	=3	=3	=3	=3	=3	=3	=3	=3	=3	=3	=3	=3	=3	=3	=3	=3	=3	=3	=3	=3	=3	=3	=3	=3	=3	=3	=3	=3
*	*	*	*	*	*	*	*	*	*	*	*	*	*	*	*	*	*	*	*	*	*	*	*^	*	*	*	*	*	*^	*	*	*	*	*
8AA/L	.	8AA/Lyy	.	8AA/Lyy	.	8A'/Lyy	.	8A'/L	.	4r	.	2.r	2.r	.	8AA'/L	.	8A'\L	.	4r	.	8AA/Lyy	.	4r	4reyy	.	4r	.	8A'/L	.	8a\L	2rcyy	.	8a'\L	.	8aa'\L	.
8C/J	.	8C/Jyy	.	8C/Jyy	.	8c'/Jyy	.	8c'/J	.	.	.	.	.	.	8C'/J	.	8c'\J	.	.	.	8C/Jyy	.	.	.	.	.	.	8c'/J	.	8cc\J	.	.	8cc'\J	.	8ccc'\J	.
4.F\	.	4.F\yy	.	4.F/yy	.	4.f/yy	.	4.f/	.	4r	.	.	.	.	4.F\	.	4.f\	.	4r	.	4.F\yy	.	4r	4reyy	.	4r	.	4.f/	.	4.ff\	.	.	4.ff\	.	4.fff\	.
.	.	.	.	.	.	.	.	.	.	8r	.	.	.	.	.	.	.	.	8r	.	.	.	8r	8reyy	.	8r	.	.	.	.	8rcyy	.	.	.	.	.
8AA/	.	8AA/yy	.	8F/	.	8c/	.	8e-/	.	8F\	.	.	.	.	8AA/	.	8e-\ 8c\	.	8cc/ 8e-/	.	8AA/yy	.	8ff/	8ff\	.	8cc/ 8f/	.	8a/ 8f/	.	8ee-/	8cc\	.	8ee-\	.	8eee-\	.
*	*	*	*	*	*	*	*	*	*	*	*	*	*	*	*	*	*	*	*	*	*	*	*v	*v	*	*	*	*	*	*	*	*	*	*	*	*
=4	=4	=4	=4	=4	=4	=4	=4	=4	=4	=4	=4	=4	=4	=4	=4	=4	=4	=4	=4	=4	=4	=4	=4	=4	=4	=4	=4	=4	=4	=4	=4	=4	=4	=4	=4
*	*	*	*	*	*	*	*	*	*	*	*	*	*	*	*	*	*	*	*	*	*	*	*	*	*	*	*^	*	*	*	*	*	*	*	*
8BB-/L	.	8BB-/Lyy	.	8F/L	.	8B-/L	.	(16d/LL	.	8BB-/L	.	2.r	2.r	.	8BB-/L	.	8d\L 8B-\	.	8b-/L 8d/	.	8BB-/Lyy	.	8ff/L 8b-/	.	8dd/L 8b-/	.	8b-/L	8f\L	.	16dd/LL	8b-\L	.	(16dd\LL	.	(16ddd\LL	.
.	.	.	.	.	.	.	.	16e-/	.	.	.	.	.	.	.	.	.	.	.	.	.	.	.	.	.	.	.	.	.	16ee-/	.	.	16ee-\	.	16eee-\	.
8FF/J	.	8FF/Jyy	.	8E-/J	.	8A/J	.	16c/	.	8F/J	.	.	.	.	8FF/J	.	8e-\J 8A\	.	8a/J 8c/	.	8FF/Jyy	.	8ff/J	.	8cc/J 8f/	.	8a/J	8e-\J	.	16cc/	8a\J	.	16cc\	.	16ccc\	.
.	.	.	.	.	.	.	.	16d/JJ)	.	.	.	.	.	.	.	.	.	.	.	.	.	.	.	.	.	.	.	.	.	16dd/JJ	.	.	16dd\JJ	.	16ddd\JJ)	.
4BB-/	.	4BB-/yy	.	4D/	.	4B-/	.	4B-/	.	4BB-/	.	.	.	.	4BB-/	.	4d\ 4B-\	.	4b-/ 4d/	.	4BB-/yy	.	4ff/ 4b-/	.	4b-/ 4d/	.	4b-/ 4d/	4ryy	.	4b-/	4b-\	.	4b-\)	.	4bb-\	.
4r	.	4ryy	.	4r	.	4r	.	4r	.	4r	.	.	.	.	4r	.	4r	.	4r	.	4ryy	.	4r	.	4r	.	8r	8rByy	.	8r	4rcyy	.	4r	.	4r	.
.	.	.	.	.	.	.	.	.	.	.	.	.	.	.	.	.	.	.	.	.	.	.	.	.	.	.	8f/	8f\	.	8f/	.	.	.	.	.	.
*	*	*	*	*	*	*	*	*	*	*	*	*	*	*	*	*	*	*	*	*	*	*	*	*	*	*	*v	*v	*	*	*	*	*	*	*	*
*	*	*	*	*	*	*	*	*	*	*	*	*	*	*	*	*	*	*	*	*	*	*	*	*	*	*	*	*	*v	*v	*	*	*	*	*
*	*	*	*	*	*	*	*	*	*	*	*	*	*	*	*	*	*	*	*	*	*clefC4	*	*	*	*	*	*	*	*	*	*	*	*	*
!!LO:PB:g=original
=5	=5	=5	=5	=5	=5	=5	=5	=5	=5	=5	=5	=5	=5	=5	=5	=5	=5	=5	=5	=5	=5	=5	=5	=5	=5	=5	=5	=5	=5	=5	=5	=5	=5	=5
*>B	*	*>B	*	*>B	*	*>B	*	*>B	*	*>B	*	*>B	*>B	*	*>B	*	*>B	*	*>B	*	*>B	*	*>B	*	*>B	*	*>B	*	*>B	*	*>B	*	*>B	*
!	!LO:DY:rj	!	!LO:DY:rj	!	!	!	!LO:DY:rj	!	!	!	!	!	!	!	!	!	!	!	!	!	!	!	!	!	!	!LO:DY:rj	!	!	!	!	!	!	!	!
8BB-/	p	8BB-/L	p	8B-/ 8F/	.	8d/ 8B-/	p	2.r	.	2.ryy	.	2.r	2.r	.	2.r	.	2.r	.	2.r	.	8d\L 8B-'\	.	8ff/ 8b-/	.	8dd/ 8f/	p	8dd\L 8b-'\	.	8dd\L 8b-'\	.	2.r	.	2.r	.
8r	.	8F/J	.	8r	.	8r	.	.	.	.	.	.	.	.	.	.	.	.	.	.	(16d\L 16B-\	.	8r	.	8r	.	(16dd\L 16b-\	.	(16dd\L 16b-\	.	.	.	.	.
.	.	.	.	.	.	.	.	.	.	.	.	.	.	.	.	.	.	.	.	.	16e-\JJ 16c\)	.	.	.	.	.	16ee-\JJ 16cc\	.	16ee-\JJ 16cc\)	.	.	.	.	.
*rep	*	*rep	*	*rep	*	*rep	*	*	*	*	*	*	*	*	*	*	*	*	*	*	*	*	*	*	*	*	*	*	*	*	*	*	*	*
8BB-/	.	8BB-/L	.	8B-/ 8F/	.	8d/ 8B-/	.	.	.	.	.	.	.	.	.	.	.	.	.	.	8f\L 8d'\	.	8ff/ 8b-/	.	8dd/ 8f/	.	8ff\L 8dd\)	.	8ff\L 8dd'\	.	.	.	.	.
!	!	!	!	!	!	!	!	!	!	!	!	!	!	!	!	!	!	!	!	!	!	!	!	!	!	!	!LO:SIC:v:n=1:s=8eeX\J	!	!	!	!	!	!	!
8r	.	8F/J	.	8r	.	8r	.	.	.	.	.	.	.	.	.	.	.	.	.	.	8en\J 8c#X'\	.	8r	.	8r	.	8ee-X\J 8cc#X'\	.	8een\J 8cc#X'\	.	.	.	.	.
.	.	.	.	.	.	.	.	.	.	.	.	.	.	.	.	.	.	.	.	.	(8qg/ 8qe/	.	.	.	.	.	(8qgg/ 8qeeny/	.	(<8qgg/ 8qee/	.	.	.	.	.
*Xrep	*	*Xrep	*	*Xrep	*	*Xrep	*	*	*	*	*	*	*	*	*	*	*	*	*	*	*	*	*	*	*	*	*	*	*	*	*	*	*	*
*rep	*	*rep	*	*rep	*	*rep	*	*	*	*	*	*	*	*	*	*	*	*	*	*	*	*	*	*	*	*	*	*	*	*	*	*	*	*
8BB-/	.	8BB-/L	.	8B-/ 8F/	.	8d/ 8B-/	.	.	.	.	.	.	.	.	.	.	.	.	.	.	8f\L 8d\)	.	8ff/ 8b-/	.	8dd/ 8f/	.	8ff\L 8dd\)	.	8ff\L 8dd\)	.	.	.	.	.
8r	.	8F/J	.	8r	.	8r	.	.	.	.	.	.	.	.	.	.	.	.	.	.	8d\J 8B-'\	.	8r	.	8r	.	8dd\J 8b-'\	.	8dd\J 8b-'\	.	.	.	.	.
*Xrep	*	*Xrep	*	*Xrep	*	*Xrep	*	*	*	*	*	*	*	*	*	*	*	*	*	*	*	*	*	*	*	*	*	*	*	*	*	*	*	*
=6	=6	=6	=6	=6	=6	=6	=6	=6	=6	=6	=6	=6	=6	=6	=6	=6	=6	=6	=6	=6	=6	=6	=6	=6	=6	=6	=6	=6	=6	=6	=6	=6	=6	=6
!	!	!LO:TX:t=P:problem:mixed beam	!	!	!	!	!	!	!	!	!	!	!	!	!	!	!	!	!	!	!	!	!	!	!	!	!	!	!	!	!	!	!	!
4FF/	.	8FF/L	.	8r	.	8r	.	(16dd/LL 16b-/	.	2.ryy	.	2.r	2.r	.	2.ryy	.	2.ryy	.	(16dd\LL 16b-\	.	(16d\LL 16B-\	.	8r	.	8r	.	(16dd\LL 16b-\	.	(16dd\LL 16b-\	.	(16dd\LL	.	(16bb-\LL	.
.	.	.	.	.	.	.	.	16cc/ 16a/	.	.	.	.	.	.	.	.	.	.	16cc\ 16a\	.	16c\ 16A\	.	.	.	.	.	16cc\ 16a\	.	16cc\ 16a\	.	16cc\	.	16aa\	.
.	.	8F\	.	8A/L 8F/	.	8e-/L 8c/	.	16bn/ 16g#X/	.	.	.	.	.	.	.	.	.	.	16bn\ 16g#X\	.	16Bn\ 16G#X\	.	4ff/ 4aX/	.	4ee-/ 4f^/	.	16bX\ 16g#X\	.	16bn\ 16g#X\	.	16bn\	.	16gg#X\	.
.	.	.	.	.	.	.	.	16cc/JJ 16a/	.	.	.	.	.	.	.	.	.	.	16cc\JJ 16a\	.	16c\JJ 16A\	.	.	.	.	.	16cc\JJ 16a\)	.	16cc\JJ 16a\)	.	16cc\JJ	.	16aa\JJ	.
4r	.	8FF/	.	8A/ 8F/	.	8e-/ 8c/	.	8cc/ 8a/)	.	.	.	.	.	.	.	.	.	.	8cc\ 8a\)	.	4.c\ 4.A\)	.	.	.	.	.	4.cc\ 4.a\	.	4.cc\ 4.a\	.	8cc\)	.	8aa\)	.
.	.	8F\J	.	8A/J 8F/	.	8e-/J 8c/	.	8r	.	.	.	.	.	.	.	.	.	.	8r	.	.	.	8ff/L 8a/	.	8ee-/L 8f/	.	.	.	.	.	8r	.	8r	.
4r	.	8FF/	.	8A/ 8F/	.	8e-/ 8c/	.	4r	.	.	.	.	.	.	.	.	.	.	4r	.	.	.	8ff/J 8a/	.	8ee-/J 8f/	.	.	.	.	.	4r	.	4r	.
.	.	8r	.	8r	.	8r	.	.	.	.	.	.	.	.	.	.	.	.	.	.	8d\ 8B\	.	8r	.	8r	.	8dd\ 8b\	.	8dd\ 8b\	.	.	.	.	.
=7	=7	=7	=7	=7	=7	=7	=7	=7	=7	=7	=7	=7	=7	=7	=7	=7	=7	=7	=7	=7	=7	=7	=7	=7	=7	=7	=7	=7	=7	=7	=7	=7	=7	=7
!	!	!LO:TX:t=P:problem:mixed beam	!	!	!	!	!	!	!	!	!	!	!	!	!	!	!	!	!	!	!	!	!	!	!	!	!	!	!	!	!	!	!	!
8F\	.	8FF/L	.	8A/ 8F/	.	8e-/ 8c/	.	2.r	.	2.ryy	.	2.r	2.r	.	2.ryy	.	2.ryy	.	2.r	.	8e-\L 8c'\	.	8ff/ 8aX/	.	8ee-/ 8f/	.	8ee-\L 8cc\	.	8ee-\L 8cc'\	.	2.r	.	2.r	.
8r	.	8F\J	.	8r	.	8r	.	.	.	.	.	.	.	.	.	.	.	.	.	.	(16e-\L 16c\	.	8r	.	8r	.	16ee-\L 16cc\	.	(16ee-\L 16cc\	.	.	.	.	.
.	.	.	.	.	.	.	.	.	.	.	.	.	.	.	.	.	.	.	.	.	16f\JJ 16d\)	.	.	.	.	.	16ff\JJ 16dd\	.	16ff\JJ 16dd\)	.	.	.	.	.
!	!	!LO:TX:t=P:problem:mixed beam	!	!	!	!	!	!	!	!	!	!	!	!	!	!	!	!	!	!	!	!	!	!	!	!	!	!	!	!	!	!	!	!
*rep	*	*rep	*	*rep	*	*rep	*	*	*	*	*	*	*	*	*	*	*	*	*	*	*	*	*rep	*	*rep	*	*	*	*	*	*	*	*	*
8F\	.	8FF/L	.	8A/ 8F/	.	8e-/ 8c/	.	.	.	.	.	.	.	.	.	.	.	.	.	.	8g\L 8e-'\	.	8ff/ 8a/	.	8ee-/ 8f/	.	8gg\L 8ee-\	.	8gg\L 8ee-'\	.	.	.	.	.
8r	.	8F\J	.	8r	.	8r	.	.	.	.	.	.	.	.	.	.	.	.	.	.	8f#X\J 8d'\	.	8r	.	8r	.	8ff#X\J 8dd\	.	8ff#X\J 8dd'\	.	.	.	.	.
!	!	!LO:TX:t=P:problem:mixed beam	!	!	!	!	!	!	!	!	!	!	!	!	!	!	!	!	!	!	!	!	!	!	!	!	!	!	!	!	!	!	!	!
*Xrep	*	*Xrep	*	*Xrep	*	*Xrep	*	*	*	*	*	*	*	*	*	*	*	*	*	*	*	*	*Xrep	*	*Xrep	*	*	*	*	*	*	*	*	*
*rep	*	*rep	*	*rep	*	*rep	*	*	*	*	*	*	*	*	*	*	*	*	*	*	*	*	*rep	*	*rep	*	*	*	*	*	*	*	*	*
.	.	.	.	.	.	.	.	.	.	.	.	.	.	.	.	.	.	.	.	.	(>8qa/ 8qf#/	.	.	.	.	.	8qaa/ 8qff#/	.	(<8qaa/ 8qff#/	.	.	.	.	.
8F\	.	8FF/L	.	8A/ 8F/	.	8e-/ 8c/	.	.	.	.	.	.	.	.	.	.	.	.	.	.	8g\L 8e-\)	.	8ff/ 8a/	.	8ee-/ 8f/	.	8gg\L 8ee-\	.	8gg\L 8ee-\)	.	.	.	.	.
8r	.	8F\J	.	8r	.	8r	.	.	.	.	.	.	.	.	.	.	.	.	.	.	8e-\J 8c'\	.	8r	.	8r	.	8ee-\J 8cc\	.	8ee-\J 8cc'\	.	.	.	.	.
*Xrep	*	*Xrep	*	*Xrep	*	*Xrep	*	*	*	*	*	*	*	*	*	*	*	*	*	*	*	*	*Xrep	*	*Xrep	*	*	*	*	*	*	*	*	*
=8	=8	=8	=8	=8	=8	=8	=8	=8	=8	=8	=8	=8	=8	=8	=8	=8	=8	=8	=8	=8	=8	=8	=8	=8	=8	=8	=8	=8	=8	=8	=8	=8	=8	=8
4BB-/	.	8BB-/L	.	8r	.	8r	.	(16een\LL 16cc#X\	.	2.ryy	.	2.r	2.r	.	2.ryy	.	2.ryy	.	(16cc#X/LL 16en/	.	(16en\LL 16c#X\	.	8r	.	8r	.	(16eeX\LL 16cc#X\	.	(16een\LL 16cc#X\	.	(16een\LL	.	(16ccc#X\LL	.
.	.	.	.	.	.	.	.	16ff\ 16dd\	.	.	.	.	.	.	.	.	.	.	16dd/ 16f/	.	16f\ 16d\	.	.	.	.	.	16ff\ 16dd\	.	16ff\ 16dd\	.	16ff\	.	16ddd\	.
.	.	8F/	.	8B-/L 8F/	.	8d/L 8B-/	.	16gg\ 16ee\	.	.	.	.	.	.	.	.	.	.	16ee-/ 16g/	.	16g\ 16e\	.	4ff/ 4b-/	.	4dd/ 4f^/	.	16gg\ 16ee\	.	16gg\ 16ee\	.	16gg\	.	16eee-\	.
.	.	.	.	.	.	.	.	16ff\JJ 16dd\	.	.	.	.	.	.	.	.	.	.	16dd/JJ 16f/)	.	16f\JJ 16d\	.	.	.	.	.	16ff\JJ 16dd\	.	16ff\JJ 16dd\	.	16ff\JJ	.	16ddd\JJ)	.
4r	.	8BB-/	.	8B-/ 8F/	.	8d/ 8B-/	.	4dd\ 4b-\)	.	.	.	.	.	.	.	.	.	.	4b-/ 4d/	.	4d\ 4B-\)	.	.	.	.	.	4dd\ 4b-\)	.	4dd\ 4b-\)	.	4dd\)	.	4bb-\	.
.	.	8F/J	.	8B-/J 8F/	.	8d/J 8B-/	.	.	.	.	.	.	.	.	.	.	.	.	.	.	.	.	8ff/L 8b-/	.	8dd/L 8f/	.	.	.	.	.	.	.	.	.
*	*	*	*	*	*	*	*	*	*	*	*	*	*	*	*	*	*	*	*	*	*clefF4	*	*	*	*	*	*	*	*	*	*	*	*	*
(16BB-/LL	<	(16BB-/LL	.	8B-/ 8F/	.	8d/ 8B-/	.	(16b-\LL	<	.	.	.	.	.	.	.	.	.	4r	.	(16BB-\LL	.	8ff/J 8b-/	.	8dd/J 8f/	.	4r	.	(16b-\LL	.	(16b-\LL	.	4r	.
32C/L	.	32C/L	.	.	.	.	.	32cc#\L	.	.	.	.	.	.	.	.	.	.	.	.	32C\L	.	.	.	.	.	.	.	32cc#\L	.	32cc\L	.	.	.
32D/	.	32D/	.	.	.	.	.	32dd\	.	.	.	.	.	.	.	.	.	.	.	.	32D\	.	.	.	.	.	.	.	32dd\	.	32dd\	.	.	.
32E-/	.	32E-/	.	8r	.	8r	.	32ee\	.	.	.	.	.	.	.	.	.	.	.	.	32E-\	.	8r	.	8r	.	.	.	32ee\	.	32ee\	.	.	.
32F/	.	32F/	.	.	.	.	.	32ff\	.	.	.	.	.	.	.	.	.	.	.	.	32F\	.	.	.	.	.	.	.	32ff\	.	32ff\	.	.	.
32G/	.	32G/	.	.	.	.	.	32gg\	.	.	.	.	.	.	.	.	.	.	.	.	32G\	.	.	.	.	.	.	.	32gg\	.	32gg\	.	.	.
32A/JJJ	[[	32A/JJJ	.	.	.	.	.	32aa\JJJ	[[	.	.	.	.	.	.	.	.	.	.	.	32A\JJJ	.	.	.	.	.	.	.	32aa\JJJ)	.	32aa\JJJ	.	.	.
!!LO:PB:g=original
=9	=9	=9	=9	=9	=9	=9	=9	=9	=9	=9	=9	=9	=9	=9	=9	=9	=9	=9	=9	=9	=9	=9	=9	=9	=9	=9	=9	=9	=9	=9	=9	=9	=9	=9
*	*	*	*	*	*	*	*	*	*	*	*	*	*	*	*	*	*^	*	*	*	*	*	*	*	*^	*	*^	*	*	*	*	*	*	*
*	*	*	*	*tremolo	*	*	*	*	*	*	*	*	*	*	*	*	*	*2\right	*	*	*	*	*	*	*	*	*2\right	*	*	*2\right	*	*	*	*	*	*	*
!LO:TX:t=P:problem:mixed beam	!	!LO:TX:t=P:problem:mixed beam	!	!	!	!	!	!	!	!	!	!	!	!	!	!	!	!	!	!	!	!	!	!	!	!	!	!LO:DY:rj	!	!	!LO:DY:rj	!LO:TX:b:t=Uniſ	!	!	!	!	!
!LO:TX:t=P:problem:brak zakończenia łuku	!	!LO:TX:t=P:problem:brak zakończenia łuku	!	!LO:TX:t=P:problem:brak zakończenia łuku	!	!	!	!	!LO:DY:rj	!	!	!	!	!	!	!LO:TX:t=P:problem:brak zakończenia łuku	!	!	!	!	!	!	!	!	!	!	!	!	!	!	!	!	!	!LO:TX:t=P:problem:brak zakończenia łuku	!	!	!
8B-\L)	f	8B-\L)yy	fy	8B-/L 8F/	f	8d/L 8B-/	.	8bb-'\L)	f	8BB-/L	.	2.r	2.r	.	4BB-/	.	4d/	2B-\	f	8b-'/L	.	8B-\L)	.	2.ff/ 2.b-/	.	2.dd/	2.b-\	f	4dd/	2.b-\	f	8bb-'/L	.	8bb-'\L)	.	2.r	.
8BB-/J	.	8BB-/Jyy	.	8B-/ 8F/	.	8d/J 8B-/	.	(16bb-\L	.	16BB-/L	.	.	.	.	.	.	.	.	.	(16b-/L	.	8B-\J 8BB-\	.	.	.	.	.	.	.	.	.	(16bb-/L	.	(16bb-\L	.	.	.
.	.	.	.	.	.	.	.	16aa\JJ)	.	16BB-/JJ	.	.	.	.	.	.	.	.	.	16a/JJ)	.	.	.	.	.	.	.	.	.	.	.	16aa/JJ)	.	16aa\JJ)	.	.	.
8D\L	.	8D\Lyy	.	8B-/ 8F/	.	8f/L 8B-/	.	(16bb-\LL	.	4BB-/	.	.	.	.	4D/	.	4f/	.	.	(16b-/LL	.	8d\L 8D\	.	.	.	.	.	.	4ff/	.	.	(16bb-/LL	.	(16bb-\LL	.	.	.
.	.	.	.	.	.	.	.	16aa\)	.	.	.	.	.	.	.	.	.	.	.	16a/)	.	.	.	.	.	.	.	.	.	.	.	16aa/)	.	16aa\)	.	.	.
8D\J	.	8D\Jyy	.	8B-/ 8F/	.	8f/J 8B-/	.	16gg'\	.	.	.	.	.	.	.	.	.	.	.	16g'/	.	8d\J 8D\	.	.	.	.	.	.	.	.	.	16gg'/	.	16gg'\	.	.	.
.	.	.	.	.	.	.	.	16ff'\JJ	.	.	.	.	.	.	.	.	.	.	.	16f'/JJ	.	.	.	.	.	.	.	.	.	.	.	16ff'/JJ	.	16ff'\JJ	.	.	.
8BB-/L	.	8BB-/Lyy	.	8B-/ 8F/	.	8d/L 8B-/	.	(16gg\LL	.	4r	.	.	.	.	4BB-/	.	4d/	4B-\	.	(16g/LL	.	8B-\L 8BB-\	.	.	.	.	.	.	4dd/	.	.	(16gg/LL	.	(16gg\LL	.	.	.
.	.	.	.	.	.	.	.	16ff\)	.	.	.	.	.	.	.	.	.	.	.	16f/)	.	.	.	.	.	.	.	.	.	.	.	16ff/)	.	16ff\)	.	.	.
8BB-/J	.	8BB-/Jyy	.	8B-/J 8F/	.	8d/J 8B-/	.	16ee-'\	.	.	.	.	.	.	.	.	.	.	.	16e-'/	.	8B-\J 8BB-\	.	.	.	.	.	.	.	.	.	16ee-'/	.	16ee-'\	.	.	.
.	.	.	.	.	.	.	.	16dd'\JJ	.	.	.	.	.	.	.	.	.	.	.	16d'/JJ	.	.	.	.	.	.	.	.	.	.	.	16dd'/JJ	.	16dd'\JJ	.	.	.
=10	=10	=10	=10	=10	=10	=10	=10	=10	=10	=10	=10	=10	=10	=10	=10	=10	=10	=10	=10	=10	=10	=10	=10	=10	=10	=10	=10	=10	=10	=10	=10	=10	=10	=10	=10	=10	=10
*	*	*	*	*	*	*	*	*	*	*	*	*	*	*	*	*	*	*	*	*^	*	*	*	*^	*	*	*	*	*	*	*	*^	*	*	*	*	*
*	*	*	*	*	*	*	*	*	*	*	*	*	*	*	*	*	*	*	*	*	*	*	*tremolo	*	*	*2\right	*	*	*	*	*	*	*	*	*2\right	*	*	*	*	*
8E-\L	.	8E-\Lyy	.	8G/L	.	8c/L	.	8cc'\L	.	4r	.	2.r	2.r	.	4E-\	.	4c/	2G\	.	8c/L	2rcyy	.	8e-\L 8E-\	.	2gg/	2ee-\	.	2cc/	2cc\	.	4cc/	2g\	.	4cc/	2cc\	.	8cc\	.	8r	.
!	!	!	!	!	!	!	!	!	!	!	!	!	!	!	!	!	!	!	!	!	!	!	!	!	!	!	!	!	!	!	!	!	!	!	!	!	!LO:TX:t=col Fl	!	!	!
8E-\J	.	8E-\Jyy	.	8G/	.	8c/J	.	(16gg\L	.	.	.	.	.	.	.	.	.	.	.	16g/L	.	.	8e-\J 8E-\	.	.	.	.	.	.	.	.	.	.	.	.	.	(y16gg\LLyy	.	(16ggg\LL	.
.	.	.	.	.	.	.	.	16ff#X\JJ)	.	.	.	.	.	.	.	.	.	.	.	16f#X/JJ	.	.	.	.	.	.	.	.	.	.	.	.	.	.	.	.	16ff#X\JJ)yy	.	16fff#X\JJ)	.
8C/L	.	8C/Lyy	.	8G/	.	8e-/L	.	(16gg\LL	.	4r	.	.	.	.	4C/	.	4e-/	.	.	4g/	.	.	8c\L 8C\	.	.	.	.	.	.	.	4ee-/	.	.	4ee-/	.	.	(y16gg\LLyy	.	(16ggg\LL	.
.	.	.	.	.	.	.	.	16ffn\)	.	.	.	.	.	.	.	.	.	.	.	.	.	.	.	.	.	.	.	.	.	.	.	.	.	.	.	.	16ffn\)yy	.	16fffn\)	.
8C/J	.	8C/Jyy	.	8G/	.	8e-/J	.	16ee-'\	.	.	.	.	.	.	.	.	.	.	.	.	.	.	8c\J 8C\	.	.	.	.	.	.	.	.	.	.	.	.	.	16ee-'\yy	.	16eee-'\	.
.	.	.	.	.	.	.	.	16dd'\JJ	.	.	.	.	.	.	.	.	.	.	.	.	.	.	.	.	.	.	.	.	.	.	.	.	.	.	.	.	16dd'\JJyy	.	16ddd'\JJ	.
*	*	*	*	*	*	*	*	*	*	*tremolo	*	*	*	*	*	*	*	*	*	*	*	*	*Xtremolo	*	*	*	*	*	*	*	*	*	*	*	*	*	*	*	*	*
8E-\L	.	8E-\Lyy	.	8G/	.	8c/L	.	(16cc/LL	.	32BB-/LLL	.	.	.	.	8E-\L	.	4c/	4G\	.	4cc/	4g\	.	8e-\L 8E-\	.	4gg/	8ee-\L	.	4cc/	4b-\	.	4cc/	4g\	.	4cc/	4b-\	.	(y16cc/LLyy	.	(16ccc\LL	.
.	.	.	.	.	.	.	.	.	.	32BB-/	.	.	.	.	.	.	.	.	.	.	.	.	.	.	.	.	.	.	.	.	.	.	.	.	.	.	.	.	.	.
.	.	.	.	.	.	.	.	16b-/)	.	32BB-/	.	.	.	.	.	.	.	.	.	.	.	.	.	.	.	.	.	.	.	.	.	.	.	.	.	.	16b-/)yy	.	16bb-\)	.
.	.	.	.	.	.	.	.	.	.	32BB-/	.	.	.	.	.	.	.	.	.	.	.	.	.	.	.	.	.	.	.	.	.	.	.	.	.	.	.	.	.	.
8En\J	.	8En\Jyy	.	8G/J	.	8c/J	.	16a'/	.	32BB-/	.	.	.	.	8En\J	.	.	.	.	.	.	.	8en\J 8En\	.	.	8eeX\J	.	.	.	.	.	.	.	.	.	.	16a'/yy	.	16aa'\	.
.	.	.	.	.	.	.	.	.	.	32BB-/	.	.	.	.	.	.	.	.	.	.	.	.	.	.	.	.	.	.	.	.	.	.	.	.	.	.	.	.	.	.
.	.	.	.	.	.	.	.	16g'/JJ	.	32BB-/	.	.	.	.	.	.	.	.	.	.	.	.	.	.	.	.	.	.	.	.	.	.	.	.	.	.	16g'/JJyy	.	16gg'\JJ	.
.	.	.	.	.	.	.	.	.	.	32BB-/JJJ	.	.	.	.	.	.	.	.	.	.	.	.	.	.	.	.	.	.	.	.	.	.	.	.	.	.	.	.	.	.
*	*	*	*	*Xtremolo	*	*	*	*	*	*Xtremolo	*	*	*	*	*	*	*	*	*	*	*	*	*	*	*	*	*	*	*	*	*	*	*	*	*	*	*	*	*	*
*	*	*	*	*	*	*	*	*	*	*	*	*	*	*	*	*	*	*	*	*	*	*	*	*	*v	*v	*	*	*	*	*v	*v	*	*v	*v	*	*	*	*	*
*	*	*	*	*	*	*	*	*	*	*	*	*	*	*	*	*	*	*	*	*v	*v	*	*	*	*	*	*v	*v	*	*	*	*	*	*	*	*	*
=11	=11	=11	=11	=11	=11	=11	=11	=11	=11	=11	=11	=11	=11	=11	=11	=11	=11	=11	=11	=11	=11	=11	=11	=11	=11	=11	=11	=11	=11	=11	=11	=11	=11	=11	=11
8F\	.	8F\yy	.	8F/	.	8d/ 8B-/	.	16f'/LL	.	8BB-/	.	2.r	2.r	.	8F\	.	8d/	8B-\	.	8dd/ 8f/	.	8f\ 8F\	.	8ff\	.	8dd\ 8b-\	.	8b-/ 8f/	.	8dd\ 8b-\	.	16f'/LLyy	.	16ff'\LL	.
.	.	.	.	.	.	.	.	(16b-/	.	.	.	.	.	.	.	.	.	.	.	.	.	.	.	.	.	.	.	.	.	.	.	(y16b-/yy	.	(16bb-\	.
8r	.	8ryy	.	8r	.	8r	.	16a/	.	8r	.	.	.	.	8r	.	8rc	8rBByy	.	8r	.	8r	.	8r	.	8r	.	8r	.	8r	.	16a/yy	.	16aa\	.
.	.	.	.	.	.	.	.	16b-/JJ)	.	.	.	.	.	.	.	.	.	.	.	.	.	.	.	.	.	.	.	.	.	.	.	16b-/JJ)yy	.	16bb-\JJ)	.
*rep	*	*repy	*	*rep	*	*rep	*	*	*	*	*	*	*	*	*rep	*	*rep	*rep	*	*	*	*	*	*rep	*	*rep	*	*	*	*	*	*	*	*	*
8F\	.	8F\yy	.	8F/	.	8d/ 8B-/	.	16f'/LL	.	8BB-/	.	.	.	.	8F\	.	8d/	8B-\	.	8b-/ 8f/	.	8d\ 8F\	.	8ff\	.	8dd\ 8b-\	.	8dd\ 8b-\	.	8ff\ 8dd\	.	16f'/LLyy	.	16ff'\LL	.
.	.	.	.	.	.	.	.	(16dd/	.	.	.	.	.	.	.	.	.	.	.	.	.	.	.	.	.	.	.	.	.	.	.	(y16dd/yy	.	(16ddd\	.
8r	.	8ryy	.	8r	.	8r	.	16cc/	.	8r	.	.	.	.	8r	.	8rc	8rBByy	.	8r	.	8r	.	8r	.	8r	.	8r	.	8r	.	16cc/yy	.	16ccc\	.
.	.	.	.	.	.	.	.	16dd/JJ)	.	.	.	.	.	.	.	.	.	.	.	.	.	.	.	.	.	.	.	.	.	.	.	16dd/JJ)yy	.	16ddd\JJ)	.
*Xrep	*	*Xrep	*	*Xrep	*	*Xrep	*	*	*	*	*	*	*	*	*Xrep	*	*Xrep	*Xrep	*	*	*	*	*	*Xrep	*	*Xrep	*	*	*	*	*	*	*	*	*
*rep	*	*repy	*	*rep	*	*rep	*	*	*	*	*	*	*	*	*rep	*	*rep	*rep	*	*	*	*	*	*rep	*	*rep	*	*	*	*	*	*	*	*	*
8F\	.	8F\yy	.	8F/	.	8d/ 8B-/	.	16b-'\LL	.	8BB-/	.	.	.	.	8F\	.	8d/	8B-\	.	8f/ 8d/	.	8B-\ 8F\	.	8ff\	.	8dd\ 8b-\	.	8ff\ 8dd\ 8b-\	.	8bb-\ 8dd\	.	16b-'\LLyy	.	16bb-'\LL	.
.	.	.	.	.	.	.	.	(16ff\	.	.	.	.	.	.	.	.	.	.	.	.	.	.	.	.	.	.	.	.	.	.	.	(y16ff\yy	.	(16fff\	.
8r	.	8ryy	.	8r	.	8r	.	16een\	.	8r	.	.	.	.	8r	.	8rc	8rBByy	.	8r	.	8r	.	8r	.	8r	.	8r	.	8r	.	16een\yy	.	16eeen\	.
.	.	.	.	.	.	.	.	16ff\JJ)	.	.	.	.	.	.	.	.	.	.	.	.	.	.	.	.	.	.	.	.	.	.	.	16ff\JJ)yy	.	16fff\JJ)	.
*Xrep	*	*Xrep	*	*Xrep	*	*Xrep	*	*	*	*	*	*	*	*	*Xrep	*	*Xrep	*Xrep	*	*	*	*	*	*Xrep	*	*Xrep	*	*	*	*	*	*	*	*	*
*	*	*	*	*	*	*	*	*	*	*	*	*	*	*	*	*	*v	*v	*	*	*	*	*	*	*	*	*	*	*	*	*	*	*	*	*
=12	=12	=12	=12	=12	=12	=12	=12	=12	=12	=12	=12	=12	=12	=12	=12	=12	=12	=12	=12	=12	=12	=12	=12	=12	=12	=12	=12	=12	=12	=12	=12	=12	=12	=12
*	*	*	*	*	*	*	*	*	*	*	*	*	*	*	*	*	*	*	*	*	*^	*	*	*	*	*	*^	*	*^	*	*	*	*	*
!LO:TX:t=P:problem:mixed beam	!	!LO:TX:t=P:problem:mixed beam	!	!	!	!	!	!	!	!	!	!	!	!	!	!	!	!	!	!	!LO:TX:t=P:problem:mixed beam	!	!	!	!	!	!	!	!	!	!	!	!	!	!	!	!
8F'\L	.	8F'\Lyy	.	8F/L	.	8e-/L 8c/	.	(16gg\LL	.	8F\L	.	2.r	2.r	.	8F\L	.	8e-\L 8c\	.	(16g/LL	.	8A/L	8F\L	.	8ff\L	.	8cc/L 8f/	.	8a/L 8e-/	4rByy	.	(16gg/LL	8ee-\L	.	(y16gg\LLyy	.	(16ggg\LL	.
.	.	.	.	.	.	.	.	16ff\	.	.	.	.	.	.	.	.	.	.	16f/	.	.	.	.	.	.	.	.	.	.	.	16ff/	.	.	16ff\yy	.	16fff\	.
8FF'/J	.	8FF'/Jyy	.	8F/J	.	8e-/J 8c/	.	16ee-\)	.	8F\J	.	.	.	.	8F\J	.	8e-\J 8c\	.	16e-/)	.	8A/J	8FF/J	.	8ff\J	.	8cc/J 8f/	.	8cc/J 8e-/	.	.	16ee-/)	8cc\J	.	16ee-\)yy	.	16eee-\)	.
.	.	.	.	.	.	.	.	32r	.	.	.	.	.	.	.	.	.	.	32r	.	.	.	.	.	.	.	.	.	.	.	32r	.	.	32ryy	.	32r	.
.	.	.	.	.	.	.	.	32a|\JJk	.	.	.	.	.	.	.	.	.	.	32A|/JJk	.	.	.	.	.	.	.	.	.	.	.	32a|/JJk	.	.	32a|\JJkyy	.	32aa|\JJk	.
8r	.	8ryy	.	(>4A/ [4F/	.	(4e-/	.	(4cc\	.	8r	.	.	.	.	8r	.	4e-\ 4c\	.	(4c/	.	8r	8rEEyy	.	4ff\	.	4cc/ 4f/	.	4a/	4e-\	.	(4cc/	4a\	.	(y4cc\yy	.	(4ccc\	.
8FF'/L	.	8FF'/Lyy	.	.	.	.	.	.	.	8F/L	.	.	.	.	8FF/L	.	.	.	.	.	8F/L 8FF/	8rEEyy	.	.	.	.	.	.	.	.	.	.	.	.	.	.	.
8BB-'/J	.	8BB-'/Jyy	.	8B-/ 8F/])	.	8d/)	.	8b-\)	.	8BB-/J	.	.	.	.	8BB-/J	.	8d\ 8B-\	.	8B-/)	.	8B-/J 8BB-/	4rEEyy	.	8ff/ 8b-/	.	8b-/ 8d/	.	8b-/	8d\	.	8b-/)	8b-\	.	8b-\)yy	.	8bb-\)	.
8r	.	8ryy	.	8r	.	8r	.	8r	.	8r	.	.	.	.	8r	.	8r	.	8r	.	8r	.	.	8r	.	8r	.	8r	8rByy	.	8rdd	8rcyy	.	8ryy	.	8r;	.
*	*	*	*	*	*	*	*	*	*	*	*	*	*	*	*	*	*	*	*	*	*v	*v	*	*	*	*	*	*v	*v	*	*	*	*	*	*	*	*
!!LO:PB:g=original
=13:|!	=13:|!	=13:|!	=13:|!	=13:|!	=13:|!	=13:|!	=13:|!	=13:|!	=13:|!	=13:|!	=13:|!	=13:|!	=13:|!	=13:|!	=13:|!	=13:|!	=13:|!	=13:|!	=13:|!	=13:|!	=13:|!	=13:|!	=13:|!	=13:|!	=13:|!	=13:|!	=13:|!	=13:|!	=13:|!	=13:|!	=13:|!	=13:|!	=13:|!	=13:|!	=13:|!
*>C	*	*>C	*	*>C	*	*>C	*	*>C	*	*>C	*	*>C	*>C	*	*>C	*	*>C	*	*>C	*	*>C	*	*>C	*	*>C	*	*>C	*	*>C	*>C	*	*>C	*	*>C	*
!	!LO:DY:rj	!	!	!	!	!	!	!	!	!	!	!	!	!	!	!LO:DY:rj	!	!	!	!	!	!	!	!	!	!	!	!	!	!	!	!	!	!	!
4F\	p	8F\L	.	8r	.	8r	.	2.r	.	2.r	.	8F\	8c\ 8A\	Dzień	4F\	p	2.r	.	2.r	.	8c\L 8A'\	.	2.r	.	8cc/ 8f/	.	8cc\L 8a~\	.	8aa~/L	2.rc	.	2.r	.	(8ccc\L	.
!	!	!	!	!	!	!	!LO:DY:rj	!	!	!	!	!	!	!	!	!	!	!	!	!	!	!	!	!	!	!	!	!	!	!	!	!	!	!	!
.	.	8f\J	.	8c/ 8F/	.	8f/ 8A/	p	.	.	.	.	8F\	(16Bn\LL 16G#X\	ra-	.	.	.	.	.	.	(16Bn\L 16G#X\	.	.	.	8r	.	(16bX\L 16g#X\	.	(16gg#X/L	.	.	.	.	16bbn\L	.
.	.	.	.	.	.	.	.	.	.	.	.	.	16c\JJ 16A\)	.	.	.	.	.	.	.	16c\JJ 16A\)	.	.	.	.	.	16cc\JJ 16a\)	.	16aa/JJ	.	.	.	.	16ccc\JJ)	.
*	*	*2\right	*	*	*	*	*	*	*	*	*	*	*	*	*	*	*	*	*	*	*	*	*	*	*	*	*	*	*	*	*	*	*	*	*
*	*	*tremolo	*	*tremolo	*	*tremolo	*	*	*	*	*	*	*	*	*	*	*	*	*	*	*	*	*	*	*	*	*	*	*	*	*	*	*	*	*
4r	.	8F\L	.	8c/L 8F/	.	8f/L 8A/	.	.	.	.	.	4.F\	4.f\ 4.A\	-do-	4r	.	.	.	.	.	4.f\ 4.A\	.	.	.	4.cc/ 4.f/	.	4.ff\ 4.a\	.	4.aa/)	.	.	.	.	4.fff\	.
.	.	8F\	.	8c/ 8F/	.	8f/ 8A/	.	.	.	.	.	.	.	.	.	.	.	.	.	.	.	.	.	.	.	.	.	.	.	.	.	.	.	.	.
4r	.	8F\	.	8c/ 8F/	.	8f/ 8A/	.	.	.	.	.	.	.	.	4r	.	.	.	.	.	.	.	.	.	.	.	.	.	.	.	.	.	.	.	.
.	.	8F\J	.	8c/J 8F/	.	8f/J 8A/	.	.	.	.	.	8F\	8A/ 8F/	-ści	.	.	.	.	.	.	8A\ 8F\	.	.	.	8cc/ 8f/	.	8a/ 8f/	.	8ff/	.	.	.	.	8aa\	.
*	*	*Xtremolo	*	*Xtremolo	*	*Xtremolo	*	*	*	*	*	*	*	*	*	*	*	*	*	*	*	*	*	*	*	*	*	*	*	*	*	*	*	*	*
=14	=14	=14	=14	=14	=14	=14	=14	=14	=14	=14	=14	=14	=14	=14	=14	=14	=14	=14	=14	=14	=14	=14	=14	=14	=14	=14	=14	=14	=14	=14	=14	=14	=14	=14	=14
4C/	.	8CC/L	.	8r	.	8r	.	4r	.	2.r	.	8C/	(16c\LL 16A\	dzień	4C/	.	2.r	.	2.r	.	(16c\LL 16A\	.	2.r	.	8cc\L	.	16cc/LL 16a/	.	(16aa/LL	2.rc	.	4r	.	(16ccc\LL	.
.	.	.	.	.	.	.	.	.	.	.	.	.	16B-\JJ 16G\)	.	.	.	.	.	.	.	16B-\ 16G\	.	.	.	.	.	16b-/ 16g/	.	16gg/	.	.	.	.	16bb-\	.
.	.	8C/J	.	8c/L 8G/	.	8en/L 8B-/	.	.	.	.	.	8C/	(16A/LL 16F#X/	we-	.	.	.	.	.	.	16A\ 16F#X\	.	.	.	8cc\J	.	16an/ 16f#X/	.	16ff#X/	.	.	.	.	16aa\	.
.	.	.	.	.	.	.	.	.	.	.	.	.	16B-/JJ 16G/)	.	.	.	.	.	.	.	16B-\JJ 16G\)	.	.	.	.	.	16b-/JJ 16g/	.	16gg/JJ)	.	.	.	.	16bb-\JJ)	.
*	*	*tremolo	*	*	*	*	*	*	*	*	*	*	*	*	*	*	*	*	*	*	*	*	*	*	*	*	*	*	*	*	*	*	*	*	*
4r	.	8C/L	.	8c/ 8G/	.	8e/ 8B-/	.	8r	.	.	.	4.C/	4.G/ 4.En/	-se-	4r	.	.	.	.	.	4.G\ 4.En\	.	.	.	4.cc\	.	4.g/ 4.eX/	.	4.een/	.	.	8r	.	4.gg\	.
.	.	8C/	.	8c/J 8G/	.	8e/J 8B-/	.	(8ccc\L	.	.	.	.	.	.	.	.	.	.	.	.	.	.	.	.	.	.	.	.	.	.	.	8ccc\L	.	.	.
.	.	.	.	.	.	.	.	32qqddd/LLL	.	.	.	.	.	.	.	.	.	.	.	.	.	.	.	.	.	.	.	.	.	.	.	(32qqddd/LLL	.	.	.
.	.	.	.	.	.	.	.	32qqccc/	.	.	.	.	.	.	.	.	.	.	.	.	.	.	.	.	.	.	.	.	.	.	.	32qqccc/	.	.	.
.	.	.	.	.	.	.	.	32qqbbn/JJJ	.	.	.	.	.	.	.	.	.	.	.	.	.	.	.	.	.	.	.	.	.	.	.	32qqbbn/JJJ)	.	.	.
4r	.	8C/	.	8c/ 8G/	.	8e/ 8B-/	.	8ccc\J)	.	.	.	.	.	.	4r	.	.	.	.	.	.	.	.	.	.	.	.	.	.	.	.	8ccc\J	.	.	.
.	.	8C/J	.	8r	.	8r	.	8r	.	.	.	8C/	8A/ 8F#/	-la	.	.	.	.	.	.	8A\ 8F#\	.	.	.	8cc\	.	8a/ 8f/	.	8ffn/	.	.	8r	.	8aa\	.
*	*	*Xtremolo	*	*	*	*	*	*	*	*	*	*	*	*	*	*	*	*	*	*	*	*	*	*	*	*	*	*	*	*	*	*	*	*	*
=15	=15	=15	=15	=15	=15	=15	=15	=15	=15	=15	=15	=15	=15	=15	=15	=15	=15	=15	=15	=15	=15	=15	=15	=15	=15	=15	=15	=15	=15	=15	=15	=15	=15	=15	=15
*	*	*	*	*	*	*	*	*	*	*	*	*	*	*	*	*	*	*	*	*	*	*	*	*	*^	*	*	*	*	*	*	*	*	*	*
*	*	*rep	*	*	*	*	*	*	*	*	*	*	*	*	*	*	*	*	*	*	*	*	*	*	*	*2\right	*	*	*	*	*	*	*	*	*	*
8C/	.	8CC/L	.	8r	.	8r	.	2.r	.	2.r	.	8C/	8B-/ 8G/	Za-	8C/	.	2.r	.	2.r	.	8B-\ 8G\	.	2.r	.	2.cc/	2.cc\	.	8b-/ 8g/	.	8gg/	2.rc	.	2.r	.	8bb-\	.
8r	.	8C/J	.	8c/ 8G/	.	8en/ 8B-/	.	.	.	.	.	4C/	4g\ 4B-^\	-jaś-	8r	.	.	.	.	.	4g\ 4B-'^<\	.	.	.	.	.	.	4gg\ 4b-\	.	4bb-^/	.	.	.	.	4ggg'^<\	.
*	*	*tremolo	*	*rep	*	*rep	*	*	*	*	*	*	*	*	*	*	*	*	*	*	*	*	*	*	*	*	*	*	*	*	*	*	*	*	*	*
8C/	.	8C/L	.	8r	.	8r	.	.	.	.	.	.	.	.	8C/	.	.	.	.	.	.	.	.	.	.	.	.	.	.	.	.	.	.	.	.	.
8r	.	8C/	.	8c/ 8G/	.	8e/ 8B-/	.	.	.	.	.	4C/	4B-/ 4G^>/	-niał	8r	.	.	.	.	.	4B-\ 4G'^<\	.	.	.	.	.	.	4b-/ 4g/	.	4gg^/	.	.	.	.	4ccc'^<\	.
*	*	*	*	*Xrep	*	*Xrep	*	*	*	*	*	*	*	*	*	*	*	*	*	*	*	*	*	*	*	*	*	*	*	*	*	*	*	*	*	*
*	*	*	*	*rep	*	*rep	*	*	*	*	*	*	*	*	*	*	*	*	*	*	*	*	*	*	*	*	*	*	*	*	*	*	*	*	*	*
8C/	.	8C/	.	8r	.	8r	.	.	.	.	.	.	.	.	8C/	.	.	.	.	.	.	.	.	.	.	.	.	.	.	.	.	.	.	.	.	.
8r	.	8C/J	.	8c/ 8G/	.	8e/ 8B-/	.	.	.	.	.	8C/	8en\ 8G\	dla	8r	.	.	.	.	.	8en\ 8G'\	.	.	.	.	.	.	8eeX\ 8g\	.	8gg/	.	.	.	.	8eeen'\	.
*	*	*Xtremolo	*	*Xrep	*	*Xrep	*	*	*	*	*	*	*	*	*	*	*	*	*	*	*	*	*	*	*	*	*	*	*	*	*	*	*	*	*	*
*	*	*Xrep	*	*	*	*	*	*	*	*	*	*	*	*	*	*	*	*	*	*	*	*	*	*	*	*	*	*	*	*	*	*	*	*	*	*
*	*	*	*	*	*	*	*	*	*	*	*	*	*	*	*	*	*	*	*	*	*	*	*	*	*v	*v	*	*	*	*	*	*	*	*	*	*
=16	=16	=16	=16	=16	=16	=16	=16	=16	=16	=16	=16	=16	=16	=16	=16	=16	=16	=16	=16	=16	=16	=16	=16	=16	=16	=16	=16	=16	=16	=16	=16	=16	=16	=16	=16
*	*	*	*	*	*	*	*	*	*	*	*	*	*^	*	*	*	*	*	*	*	*^	*	*	*	*	*	*^	*	*	*	*	*	*	*	*
!	!	!LO:TX:t=P:problem:mixed beam	!	!	!	!	!	!	!	!	!	!	!	!	!	!	!	!	!	!	!	!	!	!	!	!	!	!	!	!	!	!	!	!	!	!	!	!
4F\	.	8FF/L	.	8r	.	8r	.	4r	.	2.r	.	8F\	(16g/LL	8A\	ca-	4F\	.	2.r	.	2.r	.	16g/LL	8A\L	.	2.r	.	8cc/L 8f/	.	(16gg/LL	8a\L	.	8aa/L	2.rc	.	4r	.	(16ggg\LL	.
.	.	.	.	.	.	.	.	.	.	.	.	.	16f/JJ)	.	.	.	.	.	.	.	.	16f/	.	.	.	.	.	.	16ff/	.	.	.	.	.	.	.	16fff\	.
.	.	8F\	.	8c/L 8F/	.	8f/L 8A/	.	.	.	.	.	8F\	(16en/LL	8A\	-łej	.	.	.	.	.	.	16en/	8A\J	.	.	.	8cc/J 8f/	.	16eeX/	8a\J	.	8aa/J	.	.	.	.	16eeen\	.
.	.	.	.	.	.	.	.	.	.	.	.	.	16f/JJ)	.	.	.	.	.	.	.	.	16f/JJ	.	.	.	.	.	.	16ff/JJ)	.	.	.	.	.	.	.	16fff\JJ)	.
4r	.	8F\	.	8c/ 8F/	.	8f/ 8A/	.	8r	.	.	.	4F\	4c/	4A\	wios-	4r	.	.	.	.	.	4c/	4A\	.	.	.	4cc/ 4f/	.	4cc/	4a\	.	4aa/	.	.	8r	.	4ccc\	.
.	.	8F\J	.	8c/J 8F/	.	8f/J 8A/	.	8ff\L	.	.	.	.	.	.	.	.	.	.	.	.	.	.	.	.	.	.	.	.	.	.	.	.	.	.	8ff\L	.	.	.
.	.	.	.	.	.	.	.	(32qqgg/LLL	.	.	.	.	.	.	.	.	.	.	.	.	.	.	.	.	.	.	.	.	.	.	.	.	.	.	(32qqgg/LLL	.	.	.
.	.	.	.	.	.	.	.	32qqff/	.	.	.	.	.	.	.	.	.	.	.	.	.	.	.	.	.	.	.	.	.	.	.	.	.	.	32qqff/	.	.	.
.	.	.	.	.	.	.	.	32qqeen/JJJ)	.	.	.	.	.	.	.	.	.	.	.	.	.	.	.	.	.	.	.	.	.	.	.	.	.	.	32qqeen/JJJ)	.	.	.
4r	.	4F\	.	4c/ 4F/	.	4f/ 4A/	.	8ff\J	.	.	.	4F\	4A/	4F\	-ki	4r	.	.	.	.	.	4A/	4F\	.	.	.	4cc/ 4f/	.	4a/	4f\	.	4ff/	.	.	8ff\J	.	4aa\	.
.	.	.	.	.	.	.	.	8r	.	.	.	.	.	.	.	.	.	.	.	.	.	.	.	.	.	.	.	.	.	.	.	.	.	.	8r	.	.	.
*	*	*	*	*	*	*	*	*	*	*	*	*	*	*	*	*	*	*	*	*	*	*	*	*	*	*	*	*	*v	*v	*	*	*	*	*	*	*	*
*	*	*	*	*	*	*	*	*	*	*	*	*	*v	*v	*	*	*	*	*	*	*	*v	*v	*	*	*	*	*	*	*	*v	*v	*	*	*	*	*
!!LO:PB:g=original
=17	=17	=17	=17	=17	=17	=17	=17	=17	=17	=17	=17	=17	=17	=17	=17	=17	=17	=17	=17	=17	=17	=17	=17	=17	=17	=17	=17	=17	=17	=17	=17	=17	=17	=17
8F\	.	8F\yy	.	8r	.	8r	.	8cc\L	.	2.r	.	8F\	8c\ 8A\	Do-	8F\	.	2.r	.	2.r	.	8c\L 8A'\	.	2.r	.	8cc/ 8f/	.	8cc\L 8a'\	.	8aa~>/L	.	2.r	.	(8ccc\L	.
8r	.	8ryy	.	8c/ 8F/	.	8f/ 8A/	.	16bn\L	.	.	.	8F\	(16Bn\LL 16G#X\	-bry	8r	.	.	.	.	.	(16Bn\L 16G#X\	.	.	.	8r	.	(16bX\L 16g#X\	.	(>16gg#X/L	.	.	.	16bbn\L	.
.	.	.	.	.	.	.	.	16cc\JJ	.	.	.	.	16c\JJ 16A\)	.	.	.	.	.	.	.	16c\JJ 16A\)	.	.	.	.	.	16cc\JJ 16a\)	.	16aa/JJ)	.	.	.	16ccc\JJ)	.
8FF/	.	8FF/yy	.	8r	.	8r	.	4.ff\	.	.	.	4F\	4.f\ 4.A\	Pan	8F\	.	.	.	.	.	4.f\ 4.A\	.	.	.	4.cc/ 4.f/	.	4.ff\ 4.a\	.	4.aa/	.	.	.	4.fff\	.
8r	.	8ryy	.	8c/ 8F/	.	8f/ 8A/	.	.	.	.	.	.	.	.	8r	.	.	.	.	.	.	.	.	.	.	.	.	.	.	.	.	.	.	.
8F\	.	8F\yy	.	8r	.	8r	.	.	.	.	.	4AA/	.	.	4AA/	.	.	.	.	.	.	.	.	.	.	.	.	.	.	.	.	.	.	.
8r	.	8ryy	.	8c/	.	8en/	.	8een\	.	.	.	.	8en\ 8c\	szczę-	.	.	.	.	.	.	8en\ 8c\	.	.	.	8cc/ 8eX/	.	8eeX\ 8cc\	.	8ccc/	.	.	.	8eeen\	.
=18	=18	=18	=18	=18	=18	=18	=18	=18	=18	=18	=18	=18	=18	=18	=18	=18	=18	=18	=18	=18	=18	=18	=18	=18	=18	=18	=18	=18	=18	=18	=18	=18	=18	=18
8BB-/	.	8BB-/yy	.	8r	.	8r	.	(16een\LL	.	2.r	.	8BB-/	(16en\LL 16c\	-ścia	8BB-/	.	2.r	.	2.r	.	(16en\LL 16c\	.	2.r	.	8r	.	(16eeX\LL 16cc\	.	(>16ccc/LL	.	2.r	.	((16eeen\LL	.
.	.	.	.	.	.	.	.	16dd\JJ)	.	.	.	.	16d\JJ 16B-\)	.	.	.	.	.	.	.	16d\JJ 16B-\)	.	.	.	.	.	16dd\JJ 16b-\)	.	16bb-/)	.	.	.	16ddd\)	.
8r	.	8ryy	.	8B-/	.	8d/	.	(16cc#X\LL	.	.	.	8BB-/	(16c#X\LL 16A\	u-	8r	.	.	.	.	.	(16c#X\LL 16A\	.	.	.	8b-/ 8d/	.	(16cc#X\LL 16a\	.	(>16aa/	.	.	.	(16ccc#X\	.
.	.	.	.	.	.	.	.	16dd\JJ)	.	.	.	.	16d\JJ 16B-\)	.	.	.	.	.	.	.	16d\JJ 16B-\)	.	.	.	.	.	16dd\JJ 16b-\)	.	16bb-/JJ)	.	.	.	16ddd\JJ))	.
8BB-/	.	8BB-/yy	.	8r	.	8r	.	4.b-X/	.	.	.	4.BB-/	4.B-X/ 4.Gn/	-dzie-	8BB-/	.	.	.	.	.	4.B-\ 4.G\	.	.	.	8r	.	4.b-X/ 4.g/	.	4.gg/	.	.	.	4.bb-X\	.
8r	.	8ryy	.	8d/ 8B-/	.	8g/	.	.	.	.	.	.	.	.	8r	.	.	.	.	.	.	.	.	.	8dd\ 8b-\	.	.	.	.	.	.	.	.	.
8BB-/	.	8BB-/yy	.	8r	.	8r	.	.	.	.	.	.	.	.	4BB-/	.	.	.	.	.	.	.	.	.	8r	.	.	.	.	.	.	.	.	.
8r	.	8ryy	.	8B-/	.	8d/	.	8g/	f	.	.	8BB-/	8G/ 8C/	-la	.	.	.	.	.	.	8G\ 8D\	.	.	.	8dd\ 8b-\	.	8g/ 8d/	.	8dd/	.	.	.	8gg\	.
=19	=19	=19	=19	=19	=19	=19	=19	=19	=19	=19	=19	=19	=19	=19	=19	=19	=19	=19	=19	=19	=19	=19	=19	=19	=19	=19	=19	=19	=19	=19	=19	=19	=19	=19
*	*	*	*	*	*	*	*	*	*	*	*	*	*^	*	*	*	*	*	*	*	*	*	*	*	*^	*	*	*	*	*	*	*	*	*
!	!LO:DY:rj	!	!LO:DY:rj	!	!	!	!	!	!	!	!	!	!	!	!	!	!	!	!	!	!	!	!	!	!	!	!	!LO:DY:rj	!	!	!	!LO:DY:rj	!LO:TX:b:t=col Fl	!LO:DY:rj	!	!LO:DY:rj
8C/	f	8C/yy	fy	8r	.	8r	f	16en/LL	.	8r	.	8.C/	8.En/	8.En\	Tak	8C/	f	8r	f	8r	.	8r	f	8r	.	8r	4rByy	f	(16eX/LL	.	8r	f	(y16een\LLyy	fy	(16een\LL	f
.	.	.	.	.	.	.	.	16d/	.	.	.	.	.	.	.	.	.	.	.	.	.	.	.	.	.	.	.	.	16d/	.	.	.	16dd\yy	.	16dd\	.
16C/LL	.	16C/LLyy	.	16G/LL 16C/	.	16B-/LL	.	16c/	.	16BB-/LL	f	.	.	.	.	16C/LL	.	16en\LL 16B-\	.	16cc/LL 16c/	.	16G\LL 16C\	.	16gg\LL 16eeX\	.	16cc\LL 16b-\	.	.	16c/	.	16gg\LL 16b-\	.	16cc\yy	.	16cc\	.
16C/JJ	.	16C/JJyy	.	16G/JJ 16C/	.	16B-/JJ	.	16d/JJ	.	16BB-/JJ	.	16C/	16c/ 16E/	16rBByy	śród	16C/JJ	.	16e\JJ 16B-\	.	16cc/JJ 16c/	.	16G\JJ 16C\	.	16gg\JJ 16ee\	.	16cc\JJ 16b-\	.	.	16d/JJ	.	16gg\JJ 16b-\	.	16dd\JJyy	.	16dd\JJ	.
*	*	*	*	*	*	*	*	*	*	*	*	*	*	*	*	*	*	*	*	*	*	*2\right	*	*2\right	*	*	*	*	*	*	*	*	*	*	*	*
*tremolo	*	*tremolo	*	*	*	*	*	*	*	*tremolo	*	*	*	*	*	*tremolo	*	*tremolo	*	*tremolo	*	*tremolo	*	*tremolo	*	*tremolo	*tremolo	*	*	*	*tremolo	*	*	*	*	*
8C/L	.	8C/Lyy	.	8G/L 8C/	.	8B-/L	.	16e/LL	.	8BB-/L	.	8C/	8c/ 8E/	4rBByy	dzie-	8C/L	.	8e\L 8B-\	.	8cc/L 8c/	.	8G\L 8C\	.	8gg\L 8ee\	.	8cc/L	8b-\L	.	16e/LL	.	8gg\L 8b-\	.	16ee\LLyy	.	16ee\LL	.
.	.	.	.	.	.	.	.	16f/	.	.	.	.	.	.	.	.	.	.	.	.	.	.	.	.	.	.	.	.	16f/	.	.	.	16ff\yy	.	16ff\	.
8C/	.	8C/yy	.	8G/J 8C/	.	8B-/J	.	16g/	.	8BB-/	.	8C/	8c/ 8E/	.	-ci	8C/	.	8e\ 8B-\	.	8cc/ 8c/	.	8G\ 8C\	.	8gg\ 8ee\	.	8cc/	8b-\	.	16g/	.	8gg\ 8b-\	.	16gg\yy	.	16gg\	.
.	.	.	.	.	.	.	.	16a/JJ	.	.	.	.	.	.	.	.	.	.	.	.	.	.	.	.	.	.	.	.	16a/JJ	.	.	.	16aa\JJyy	.	16aa\JJ	.
8C/	.	8C/yy	.	8G/L 8C/	.	8g/L 8B-/	.	16b-\LL	.	8BB-/	.	8C/	8c/ 8E/	4rBByy	poś-	8C/	.	8e\ 8B-\	.	8cc/ 8c/	.	8G\ 8C\	.	8gg\ 8ee\	.	8cc/	8b-\	.	16b-\LL	.	8gg\ 8b-\	.	16bb-\LLyy	.	16bb-\LL	.
.	.	.	.	.	.	.	.	16cc\	.	.	.	.	.	.	.	.	.	.	.	.	.	.	.	.	.	.	.	.	16cc\	.	.	.	16ccc\yy	.	16ccc\	.
8C/J	.	8C/Jyy	.	8G/J 8C/	.	8g/J 8B-/	.	16dd\	.	8BB-/J	.	8C/	8c/ 8E/	.	-ród	8C/J	.	8e\J 8B-\	.	8cc/J 8c/	.	8G\J 8C\	.	8gg\J 8ee\	.	8cc/J	8b-\J	.	16dd\	.	8gg\J 8b-\	.	16ddd\yy	.	16ddd\	.
.	.	.	.	.	.	.	.	16een\JJ	.	.	.	.	.	.	.	.	.	.	.	.	.	.	.	.	.	.	.	.	16eeX\JJ)	.	.	.	16eeen\JJyy	.	16eeen\JJ	.
*Xtremolo	*	*Xtremolo	*	*	*	*	*	*	*	*Xtremolo	*	*	*	*	*	*Xtremolo	*	*Xtremolo	*	*Xtremolo	*	*Xtremolo	*	*Xtremolo	*	*Xtremolo	*Xtremolo	*	*	*	*Xtremolo	*	*	*	*	*
*	*	*	*	*	*	*	*	*	*	*	*	*	*	*	*	*	*	*	*	*	*	*	*	*	*	*v	*v	*	*	*	*	*	*	*	*	*
=20	=20	=20	=20	=20	=20	=20	=20	=20	=20	=20	=20	=20	=20	=20	=20	=20	=20	=20	=20	=20	=20	=20	=20	=20	=20	=20	=20	=20	=20	=20	=20	=20	=20	=20	=20
8F\	.	8F\yy	.	8f\ 8A\ 8C\	.	8f/ 8A/	.	8ff\	.	8F\	.	4F\	4F/	4F\	nas	8F\	.	8f\ 8A\	.	8cc/ 8c/	.	8A\ 8F\	.	8ff\	.	8cc/ 8f/	.	8ff\	.	8ff\ 8a\	.	8fff\)yy	.	8fff\)	.
16r	.	16ryy	.	16r	.	16r	.	16r	.	16r	.	.	.	.	.	16r	.	16r	.	16r	.	16r	.	16r	.	16r	.	16r	.	16r	.	16ryy	.	16r	.
!	!LO:DY:rj	!	!LO:DY:rj	!	!	!	!	!	!	!	!	!	!	!	!	!	!	!	!	!	!	!	!	!	!	!	!	!	!	!	!	!	!	!	!
16F\	f	16F\yy	fy	16d\ 16F\	.	16cc/ 16f/	.	16ff\ 16a\	.	16F\	.	.	.	.	.	16F\	.	16f\ 16A\	.	16cc/ 16c/	.	16A\ 16F\	.	16ff\	.	16cc/ 16f/	.	16cc\ 16a\	.	16ff\ 16a\	.	16fff\yy	.	16fff\	.
4F\	.	4F\yy	.	4d\ 4F\	.	4cc/ 4f/	.	4ff\ 4a\	.	4F\	.	4r	4r	4rBByy	.	4F\	.	4f\ 4A\	.	4cc/ 4c/	.	4A\ 4F\	.	4ff\	.	4cc/ 4f/	.	4cc\ 4a\	.	4ff\ 4a\	.	4fff\yy	.	4fff\	.
4r	.	4ryy	.	(16En/LL	.	(16en/LL	.	(16en/LL	.	4r	.	4r	4r	4rBByy	.	4r	.	4r	.	4r	.	4r	.	4r	.	4r	.	4r	.	4r	.	4ryy	.	4r	.
.	.	.	.	16F/)	.	16f/)	.	16f/)	.	.	.	.	.	.	.	.	.	.	.	.	.	.	.	.	.	.	.	.	.	.	.	.	.	.	.
.	.	.	.	16A'/	.	16a'/	.	16a'/	.	.	.	.	.	.	.	.	.	.	.	.	.	.	.	.	.	.	.	.	.	.	.	.	.	.	.
.	.	.	.	16c'/JJ	.	16cc'/JJ	.	16cc'/JJ	.	.	.	.	.	.	.	.	.	.	.	.	.	.	.	.	.	.	.	.	.	.	.	.	.	.	.
*	*	*	*	*	*	*	*	*	*	*	*	*	*v	*v	*	*	*	*	*	*	*	*	*	*	*	*	*	*	*	*	*	*	*	*	*
!!LO:PB:g=original
=21	=21	=21	=21	=21	=21	=21	=21	=21	=21	=21	=21	=21	=21	=21	=21	=21	=21	=21	=21	=21	=21	=21	=21	=21	=21	=21	=21	=21	=21	=21	=21	=21	=21	=21
8r	.	8ryy	.	8e-\L	.	4ee-\	.	4ee-\	.	2.r	.	2.r	2.r	.	2.r	.	2.r	.	2.r	.	8.r	.	2.r	.	2.r	.	2.r	.	2.r	.	2.r	.	2.r	.
16r	.	16ryy	.	16r	.	.	.	.	.	.	.	.	.	.	.	.	.	.	.	.	.	.	.	.	.	.	.	.	.	.	.	.	.	.
16G-X\	.	16G-X\yy	.	16g-X\Jk	.	.	.	.	.	.	.	.	.	.	.	.	.	.	.	.	16G-X/ 16GG-X/	.	.	.	.	.	.	.	.	.	.	.	.	.
4F\	.	4F\yy	.	4f\	.	4r	.	4r	.	.	.	.	.	.	.	.	.	.	.	.	4F/ 4FF/	.	.	.	.	.	.	.	.	.	.	.	.	.
4r	.	4ryy	.	(16G#X/LL	.	(16g#X/LL	.	(16g#X/LL	.	.	.	.	.	.	.	.	.	.	.	.	4r	.	.	.	.	.	.	.	.	.	.	.	.	.
.	.	.	.	16A/)	.	16a/)	.	16a/)	.	.	.	.	.	.	.	.	.	.	.	.	.	.	.	.	.	.	.	.	.	.	.	.	.	.
.	.	.	.	16c'/	.	16cc'/	.	16cc'/	.	.	.	.	.	.	.	.	.	.	.	.	.	.	.	.	.	.	.	.	.	.	.	.	.	.
.	.	.	.	16e-'/JJ	.	16ee-'/JJ	.	16ee-'/JJ	.	.	.	.	.	.	.	.	.	.	.	.	.	.	.	.	.	.	.	.	.	.	.	.	.	.
=22	=22	=22	=22	=22	=22	=22	=22	=22	=22	=22	=22	=22	=22	=22	=22	=22	=22	=22	=22	=22	=22	=22	=22	=22	=22	=22	=22	=22	=22	=22	=22	=22	=22	=22
8r	.	8ryy	.	8f\L	.	8ff\	.	8ff\	.	2.r	.	2.r	2.r	.	2.r	.	2.r	.	2.r	.	8.r	.	2.r	.	2.r	.	2.r	.	2.r	.	4r	.	4r	.
16r	.	16ryy	.	16r	.	8r	.	8r	.	.	.	.	.	.	.	.	.	.	.	.	.	.	.	.	.	.	.	.	.	.	.	.	.	.
16G-X\	.	16G-X\yy	.	16g-X\Jk	.	.	.	.	.	.	.	.	.	.	.	.	.	.	.	.	16G-X/ 16GG-X/	.	.	.	.	.	.	.	.	.	.	.	.	.
4F\	.	4F\yy	.	4f\	.	4r	.	4r	.	.	.	.	.	.	.	.	.	.	.	.	4F/ 4FF/	.	.	.	.	.	.	.	.	.	4r	.	4r	.
4r	.	4ryy	.	(16Bn\LL	.	(16Bn/LL	.	(16bn\LL	.	.	.	.	.	.	.	.	.	.	.	.	4r	.	.	.	.	.	.	.	.	.	(16bn\LL	.	(16bn\LL	.
.	.	.	.	16c\)	.	16c/)	.	16cc\)	.	.	.	.	.	.	.	.	.	.	.	.	.	.	.	.	.	.	.	.	.	.	16cc\)	.	16cc\)	.
.	.	.	.	16e-'\	.	16e-'/	.	16ee-'\	.	.	.	.	.	.	.	.	.	.	.	.	.	.	.	.	.	.	.	.	.	.	16ee-'\	.	16ee-'\	.
.	.	.	.	16f'\JJ	.	16f'/JJ	.	16ff'\JJ	.	.	.	.	.	.	.	.	.	.	.	.	.	.	.	.	.	.	.	.	.	.	16ff'\JJ	.	16ff'\JJ	.
=23	=23	=23	=23	=23	=23	=23	=23	=23	=23	=23	=23	=23	=23	=23	=23	=23	=23	=23	=23	=23	=23	=23	=23	=23	=23	=23	=23	=23	=23	=23	=23	=23	=23	=23
!	!	!	!	!	!	!	!	!	!	!LO:TX:t=P:problem:na tej stronie partia kotłów zanotowana nad tenori	!	!	!	!	!	!	!	!	!	!	!	!	!	!	!	!	!	!	!	!	!	!	!	!
!	!	!	!	!	!	!	!	!	!	!LO:TX:a:i:t=Timpani	!	!	!	!	!	!	!	!	!	!	!	!	!	!	!	!	!	!	!	!	!LO:TX:b:t=Col Fl	!	!	!
8F\L	.	8F\Lyy	.	8a\	.	8a/	.	8aa\L	.	8F\	.	2.r	2.r	.	8F\L	.	8c\ 8A\	.	8a/ 8f/	.	8F/L 8FF/	.	8ff\	.	8cc/ 8f/	.	8cc\ 8a\	.	8ff\ 8a\	.	8aa\Lyy	.	8aa\L	.
*	*	*	*	*	*	*Xtuplet	*	*	*	*	*	*	*	*	*	*	*	*	*	*	*	*	*	*	*	*	*	*	*	*	*	*	*	*
!	!	!	!	!LO:TUP:a	!	!	!	!	!	!	!	!	!	!	!	!	!	!	!	!	!	!	!	!	!	!	!	!	!	!	!	!	!	!
!	!	!	!	!LO:TX:t=P:problem:łuczek zamiast numeru	!	!	!	!LO:TUP:a	!	!	!	!	!	!	!	!	!	!	!	!	!	!	!	!	!	!	!	!	!	!	!LO:TUP:a	!	!LO:TUP:a	!
16r	.	16ryy	.	24e-\LL	.	24e-/LL	.	24ee-\L	.	8r	.	.	.	.	16r	.	8r	.	8r	.	16r	.	8r	.	8r	.	8r	.	8r	.	(y24ee-\Lyy	.	(24ee-\L	.
.	.	.	.	24f\	.	24f/	.	24ff\	.	.	.	.	.	.	.	.	.	.	.	.	.	.	.	.	.	.	.	.	.	.	24ff\yy	.	24ff\	.
16F\Jk	.	16F\Jkyy	.	.	.	.	.	.	.	.	.	.	.	.	16F\Jk	.	.	.	.	.	16F/Jk 16FF/	.	.	.	.	.	.	.	.	.	.	.	.	.
.	.	.	.	24a\JJ	.	24a/JJ	.	24aa\JJ	.	.	.	.	.	.	.	.	.	.	.	.	.	.	.	.	.	.	.	.	.	.	24aa\JJyy	.	24aa\JJ	.
*	*	*	*	*	*	*	*	*	*	*rep	*	*	*	*	*	*	*	*	*	*	*	*	*rep	*	*rep	*	*	*	*	*	*	*	*	*
8C/L	.	8C/Lyy	.	8cc\L	.	8cc/L	.	8ccc\L	.	8F\	.	.	.	.	8C/L	.	8c\ 8A\	.	8cc\ 8a\	.	8C/L 8CC/	.	8ff\	.	8cc/ 8f/	.	8ff\ 8cc\	.	8aa\ 8cc\	.	8ccc\L)yy	.	8ccc\L)	.
!	!	!	!	!LO:TX:t=P:problem:łuczek zamiast numeru	!	!	!	!	!	!	!	!	!	!	!	!	!	!	!	!	!	!	!	!	!	!	!	!	!	!	!	!	!	!
!	!	!	!	!LO:TUP:a	!	!	!	!LO:TUP:a	!	!	!	!	!	!	!	!	!	!	!	!	!	!	!	!	!	!	!	!	!	!	!LO:TUP:a	!	!LO:TUP:a	!
16r	.	16ryy	.	24f\L	.	24f/L	.	24ff\L	.	8r	.	.	.	.	16r	.	8r	.	8r	.	16r	.	8r	.	8r	.	8r	.	8r	.	(y24ff\Lyy	.	(24ff\L	.
.	.	.	.	24a\	.	24a/	.	24aa\	.	.	.	.	.	.	.	.	.	.	.	.	.	.	.	.	.	.	.	.	.	.	24aa\yy	.	24aa\	.
16F/Jk	.	16F/Jkyy	.	.	.	.	.	.	.	.	.	.	.	.	16F/Jk	.	.	.	.	.	16F/Jk 16FF/	.	.	.	.	.	.	.	.	.	.	.	.	.
.	.	.	.	24cc\JJ	.	24cc/JJ	.	24ccc\JJ	.	.	.	.	.	.	.	.	.	.	.	.	.	.	.	.	.	.	.	.	.	.	24ccc\JJyy	.	24ccc\JJ	.
*	*	*	*	*	*	*	*	*	*	*Xrep	*	*	*	*	*	*	*	*	*	*	*	*	*Xrep	*	*Xrep	*	*	*	*	*	*	*	*	*
*	*	*	*	*	*	*	*	*	*	*rep	*	*	*	*	*	*	*	*	*	*	*	*	*rep	*	*rep	*	*	*	*	*	*	*	*	*
!	!	!	!	!	!	!LO:TX:t=P:problem:mixed beam	!	!	!	!	!	!	!	!	!	!	!	!	!	!	!	!	!	!	!	!	!	!	!	!	!	!	!	!
8AA/L	.	8AA/Lyy	.	8ee-\L	.	8ee-\L	.	8eee-\L	.	8F\	.	.	.	.	8AA/L	.	8e-\ 8c\	.	8ee-\ 8cc\	.	8A\L 8AA\	.	8ff\	.	8cc/ 8f/	.	8aa\ 8ff\	.	8ccc\ 8ee-\	.	8eee-\L)yy	.	8eee-\L)	.
!	!	!	!	!LO:TX:t=P:problem:łuczek zamiast numeru	!	!	!	!	!	!	!	!	!	!	!	!	!	!	!	!	!	!	!	!	!	!	!LO:TUP:b	!	!	!	!	!	!	!
!	!	!	!	!LO:TUP:a	!	!	!	!LO:TUP:a	!	!	!	!	!	!	!	!	!	!	!	!	!	!	!	!	!	!	!LO:TX:t=P:problem:klamra łukowa	!	!LO:TUP:a	!	!LO:TUP:a	!	!LO:TUP:a	!
16r	.	16ryy	.	24f\L	.	24a/L	.	24aa\L	.	8r	.	.	.	.	16r	.	8r	.	8r	.	16r	.	8r	.	8r	.	24a/LL 24f/	.	(24ff\LL 24a\	.	(y24aa\Lyy	.	(24aa\L	.
.	.	.	.	24a\	.	24cc/	.	24ccc\	.	.	.	.	.	.	.	.	.	.	.	.	.	.	.	.	.	.	24cc/ 24a/	.	24aa\ 24cc\	.	24ccc\yy	.	24ccc\	.
16C/Jk	.	16C/Jkyy	.	.	.	.	.	.	.	.	.	.	.	.	16C/Jk	.	.	.	.	.	16c\Jk 16C\	.	.	.	.	.	.	.	.	.	.	.	.	.
!	!	!	!	!	!	!	!	!	!	!	!	!	!	!	!	!	!	!	!	!	!	!	!	!	!	!	!	!	!	!	!	!	!LO:TX:t=P:problem:znak segno na kresce taktowej	!
!	!	!	!	!	!	!	!	!	!	!	!	!	!	!	!	!	!	!	!	!	!	!	!	!	!	!	!	!	!	!	!	!	!LO:TX:t=[segno]	!
.	.	.	.	24cc\JJ	.	24ee-/JJ	.	24eee-\JJ	.	.	.	.	.	.	.	.	.	.	.	.	.	.	.	.	.	.	24ee-/JJ 24cc/	.	24ccc\JJ 24ee-\	.	24eee-\JJyy	.	24eee-\JJ	.
*	*	*	*	*	*	*	*	*	*	*Xrep	*	*	*	*	*	*	*	*	*	*	*	*	*Xrep	*	*Xrep	*	*	*	*	*	*	*	*	*
=24	=24	=24	=24	=24	=24	=24	=24	=24	=24	=24	=24	=24	=24	=24	=24	=24	=24	=24	=24	=24	=24	=24	=24	=24	=24	=24	=24	=24	=24	=24	=24	=24	=24	=24
*	*	*	*	*	*	*	*	*	*	*	*	*	*	*	*^	*	*	*	*	*	*^	*	*	*	*	*	*	*	*	*	*	*	*	*
8FF/	.	8FF/yy	.	8cc\ 8f\	.	8ee-/ 8f/	.	8ggg\ 8a\	.	8F\	.	2.r	2.r	.	8F\	8FF\	.	8c\ 8A\	.	8.gg\L 8.ee-\	.	8A/	8F\	.	8ff\	.	8cc/ 8f/	.	8.gg\L 8.ee-\	.	8.eee-\L 8.gg\)	.	8.ggg\L)yy	.	8.ggg\L)	.
8r	.	8ryy	.	8r	.	8r	.	8r	.	8r	.	.	.	.	8rF	8rEEyy	.	8r	.	.	.	8rF	8rEEyy	.	8r	.	8r	.	.	.	.	.	.	.	.	.
.	.	.	.	.	.	.	.	.	.	.	.	.	.	.	.	.	.	.	.	16ff\Jk 16dd\	.	.	.	.	.	.	.	.	16ff\Jk 16dd\	.	16ddd\Jk 16ff\	.	16fff\Jkyy	.	16fff\Jk	.
4r	.	4ryy	.	4r	.	4r	.	4r	.	4r	.	.	.	.	4rF	4rEEyy	.	4r	.	16ee-\LL 16cc\	.	4rF	4rEEyy	.	4r	.	4r	.	16ee-\LL 16cc\	.	16ccc\LL 16ee-\	.	16eee-\LLyy	.	16eee-\LL	.
.	.	.	.	.	.	.	.	.	.	.	.	.	.	.	.	.	.	.	.	16dd\ 16b-\	.	.	.	.	.	.	.	.	16dd\ 16b-\	.	16bb-\ 16dd\	.	16ddd\yy	.	16ddd\	.
.	.	.	.	.	.	.	.	.	.	.	.	.	.	.	.	.	.	.	.	16cc\ 16a\	.	.	.	.	.	.	.	.	16cc\ 16a\	.	16aa\ 16cc\	.	16ccc\yy	.	16ccc\	.
.	.	.	.	.	.	.	.	.	.	.	.	.	.	.	.	.	.	.	.	16b-\JJ 16g\	.	.	.	.	.	.	.	.	16b-\JJ 16g\	.	16gg\JJ 16b-\	.	16bb-\JJyy	.	16bb-\JJ	.
4r	.	4ryy	.	4r	.	4r	.	4r	.	4r	.	.	.	.	4rF	4rEEyy	.	4r	.	16a/LL 16f/	.	4rF	4rEEyy	.	4r	.	4r	.	16a\LL 16f\	.	16ff\LL 16a\	.	16aa\LLyy	.	16aa\LL	.
.	.	.	.	.	.	.	.	.	.	.	.	.	.	.	.	.	.	.	.	16g/ 16e-/	.	.	.	.	.	.	.	.	16gg\ 16ee-\	.	16gg\ 16ee-\	.	16gg\yy	.	16gg\	.
.	.	.	.	.	.	.	.	.	.	.	.	.	.	.	.	.	.	.	.	16f/ 16d/	.	.	.	.	.	.	.	.	16ff\ 16dd\	.	16ff\ 16dd\	.	16ff\yy	.	16ff\	.
!	!	!	!	!	!	!	!	!	!	!	!	!	!	!	!	!	!	!	!	!	!	!	!	!	!	!	!	!	!	!	!	!	!	!	!LO:TX:b:i:t=D'al segno al fine e poi Trio	!
.	.	.	.	.	.	.	.	.	.	.	.	.	.	.	.	.	.	.	.	16e-/JJ 16c/	.	.	.	.	.	.	.	.	16ee-\JJ 16cc\	.	16ee-\JJ 16cc\	.	16ee-\JJyy	.	16ee-\JJ	.
*	*	*	*	*	*	*	*	*	*	*	*	*	*	*	*v	*v	*	*	*	*	*	*v	*v	*	*	*	*	*	*	*	*	*	*	*	*	*
!!LO:PB:g=original
=25||	=25||	=25||	=25||	=25||	=25||	=25||	=25||	=25||	=25||	=25||	=25||	=25||	=25||	=25||	=25||	=25||	=25||	=25||	=25||	=25||	=25||	=25||	=25||	=25||	=25||	=25||	=25||	=25||	=25||	=25||	=25||	=25||	=25||	=25||
!!!OMD: Trio.
*>D	*	*>D	*	*>D	*	*>D	*	*>D	*	*>D	*	*>D	*>D	*	*>D	*	*>D	*	*>D	*	*>D	*	*>D	*	*>D	*	*>D	*	*>D	*	*>D	*	*>D	*
*k[b-e-a-]	*	*k[b-e-a-]	*	*k[b-e-a-]	*	*k[b-e-a-]	*	*k[b-e-a-]	*	*k[b-e-a-]	*	*k[b-e-a-]	*k[b-e-a-]	*	*k[b-e-a-]	*	*k[b-e-a-]	*	*k[b-e-a-]	*	*k[b-e-a-]	*	*k[b-e-a-]	*	*k[b-e-a-]	*	*k[b-e-a-]	*	*k[b-e-a-]	*	*k[b-e-a-]	*	*k[b-e-a-]	*
*E-:	*	*E-:	*	*E-:	*	*E-:	*	*E-:	*	*E-:	*	*E-:	*E-:	*	*E-:	*	*E-:	*	*E-:	*	*E-:	*	*E-:	*	*E-:	*	*E-:	*	*E-:	*	*E-:	*	*E-:	*
!	!LO:DY:rj	!	!LO:DY:rj	!	!LO:DY:rj	!	!LO:DY:rj	!	!LO:DY:rj	!	!	!	!	!	!	!	!	!	!	!	!	!	!	!	!	!	!	!	!	!	!	!	!	!
(32qqBB-/LLL	f	(y32qqBB-/LLLyy	fy	(y32qqB-/LLLyy	fy	(32qqB-/LLLyy	f	(32qqB-/LLL	f	.	.	.	.	.	.	.	.	.	.	.	(y32qqBB-/LLLyy	fy	.	.	.	.	.	.	.	.	.	.	.	.
32qqC/	.	32qqC/yy	.	32qqc/yy	.	32qqc/yy	.	32qqc/	.	.	.	.	.	.	.	.	.	.	.	.	32qqC/yy	.	.	.	.	.	.	.	.	.	.	.	.	.
!	!	!	!	!LO:TX:b:t=col b.	!	!LO:TX:a:t=Uniſ	!	!	!	!	!	!	!	!	!	!	!	!	!	!	!LO:TX:b:t=col basso	!	!	!	!	!	!	!	!	!	!	!	!	!
32qqD/JJJ)	.	32qqD/JJJ)yy	.	32qqd/JJJ)yy	.	32qqd/JJJ)yy	.	32qqd/JJJ)	.	.	.	.	.	.	.	.	.	.	.	.	32qqD/JJJ)yy	.	.	.	.	.	.	.	.	.	.	.	.	.
8E-\L	.	8E-\Lyy	.	8e-\Lyy	.	8e-/Lyy	.	8e-/L	.	2.ryy	.	2.ryy	2.ryy	.	2.ryy	.	2.ryy	.	2.ryy	.	8E-\Lyy	.	2.r	.	2.r	.	2.r	.	2.r	.	2.r	.	2.r	.
8G'\J	.	8G'\Jyy	.	8g'\Jyy	.	8g'/Jyy	.	8g'/J	.	.	.	.	.	.	.	.	.	.	.	.	8G'\Jyy	.	.	.	.	.	.	.	.	.	.	.	.	.
4.BB-/	.	4.BB-/yy	.	4.B-/yy	.	4.B-/yy	.	4.B-/	.	.	.	.	.	.	.	.	.	.	.	.	4.BB-/yy	.	.	.	.	.	.	.	.	.	.	.	.	.
8D\	.	8D\yy	.	8d\yy	.	8d/yy	.	8d/	.	.	.	.	.	.	.	.	.	.	.	.	8D\yy	.	.	.	.	.	.	.	.	.	.	.	.	.
=26	=26	=26	=26	=26	=26	=26	=26	=26	=26	=26	=26	=26	=26	=26	=26	=26	=26	=26	=26	=26	=26	=26	=26	=26	=26	=26	=26	=26	=26	=26	=26	=26	=26	=26
8E-'\L	.	8E-'\Lyy	.	8e-'\Lyy	.	8e-'/Lyy	.	8e-'/L	.	2.ryy	.	2.ryy	2.ryy	.	2.ryy	.	2.ryy	.	2.ryy	.	8E-'\Lyy	.	2.ryy	.	2.ryy	.	2.ryy	.	2.ryy	.	2.ryy	.	2.ryy	.
8G'\J	.	8G'\Jyy	.	8g'\Jyy	.	8g'/Jyy	.	8g'/J	.	.	.	.	.	.	.	.	.	.	.	.	8G'\Jyy	.	.	.	.	.	.	.	.	.	.	.	.	.
4.B-\	.	4.B-\yy	.	4.b-\yy	.	4.b-/yy	.	4.b-/	.	.	.	.	.	.	.	.	.	.	.	.	4.B-\yy	.	.	.	.	.	.	.	.	.	.	.	.	.
8G\	.	8G\yy	.	8g\yy	.	8g/yy	.	8g/	.	.	.	.	.	.	.	.	.	.	.	.	8G\yy	.	.	.	.	.	.	.	.	.	.	.	.	.
=27	=27	=27	=27	=27	=27	=27	=27	=27	=27	=27	=27	=27	=27	=27	=27	=27	=27	=27	=27	=27	=27	=27	=27	=27	=27	=27	=27	=27	=27	=27	=27	=27	=27	=27
8A-\L	.	8A-\Lyy	.	8a-\Lyy	.	8a-/Lyy	.	8a-/L	.	2.ryy	.	2.ryy	2.ryy	.	2.ryy	.	2.ryy	.	2.ryy	.	8A-\Lyy	.	2.ryy	.	2.ryy	.	2.ryy	.	2.ryy	.	2.ryy	.	2.ryy	.
(32c\LL	.	(y32c\LLyy	.	(y32cc\LLyy	.	(y32cc/LLyy	.	(32cc/LL	.	.	.	.	.	.	.	.	.	.	.	.	(y32c\LLyy	.	.	.	.	.	.	.	.	.	.	.	.	.
32B-\	.	32B-\yy	.	32b-\yy	.	32b-/yy	.	32b-/	.	.	.	.	.	.	.	.	.	.	.	.	32B-\yy	.	.	.	.	.	.	.	.	.	.	.	.	.
32A-\	.	32A-\yy	.	32a-\yy	.	32a-/yy	.	32a-/	.	.	.	.	.	.	.	.	.	.	.	.	32A-\yy	.	.	.	.	.	.	.	.	.	.	.	.	.
32G\JJ	.	32G\JJyy	.	32g\JJyy	.	32g/JJJyy	.	32g/JJJ	.	.	.	.	.	.	.	.	.	.	.	.	32G\JJyy	.	.	.	.	.	.	.	.	.	.	.	.	.
8F\)	.	8F\)yy	.	8f\)yy	.	8f/L)yy	.	8f/L)	.	.	.	.	.	.	.	.	.	.	.	.	8F\)yy	.	.	.	.	.	.	.	.	.	.	.	.	.
(32A-\LL	.	(y32A-\LLyy	.	(y32a-\LLyy	.	(y32a-/LLyy	.	(32a-/LL	.	.	.	.	.	.	.	.	.	.	.	.	(y32A-\LLyy	.	.	.	.	.	.	.	.	.	.	.	.	.
32G\	.	32G\yy	.	32g\yy	.	32g/yy	.	32g/	.	.	.	.	.	.	.	.	.	.	.	.	32G\yy	.	.	.	.	.	.	.	.	.	.	.	.	.
32F\	.	32F\yy	.	32f\yy	.	32f/yy	.	32f/	.	.	.	.	.	.	.	.	.	.	.	.	32F\yy	.	.	.	.	.	.	.	.	.	.	.	.	.
32E-\JJJ	.	32E-\JJJyy	.	32e-\JJJyy	.	32e-/JJJyy	.	32e-/JJJ	.	.	.	.	.	.	.	.	.	.	.	.	32E-\JJJyy	.	.	.	.	.	.	.	.	.	.	.	.	.
8D\L)	.	8D\L)yy	.	8d\L)yy	.	8d/L)yy	.	8d/L)	.	.	.	.	.	.	.	.	.	.	.	.	8D\L)yy	.	.	.	.	.	.	.	.	.	.	.	.	.
(>32F\LL	.	(y>32F\LLyy	.	(y>32f\LLyy	.	(y32f/LLyy	.	(32f/LL	.	.	.	.	.	.	.	.	.	.	.	.	(y>32F\LLyy	.	.	.	.	.	.	.	.	.	.	.	.	.
32E-\	.	32E-\yy	.	32e-\yy	.	32e-/yy	.	32e-/	.	.	.	.	.	.	.	.	.	.	.	.	32E-\yy	.	.	.	.	.	.	.	.	.	.	.	.	.
32D\	.	32D\yy	.	32d\yy	.	32d/yy	.	32d/	.	.	.	.	.	.	.	.	.	.	.	.	32D\yy	.	.	.	.	.	.	.	.	.	.	.	.	.
32C\JJJ	.	32C\JJJyy	.	32c\JJJyy	.	32c/JJJyy	.	32c/JJJ	.	.	.	.	.	.	.	.	.	.	.	.	32C\JJJyy	.	.	.	.	.	.	.	.	.	.	.	.	.
=28	=28	=28	=28	=28	=28	=28	=28	=28	=28	=28	=28	=28	=28	=28	=28	=28	=28	=28	=28	=28	=28	=28	=28	=28	=28	=28	=28	=28	=28	=28	=28	=28	=28	=28
8BB-'/L)	.	8BB-'/L)yy	.	8B-'/L)yy	.	8B-'/L)yy	.	8B-'/L)	.	2.ryy	.	2.ryy	2.ryy	.	2.ryy	.	2.ryy	.	2.ryy	.	8BB-'/L)yy	.	2.ryy	.	2.ryy	.	2.ryy	.	2.ryy	.	2.ryy	.	2.ryy	.
(>8qC\	.	(y>8qC\yy	.	(y>8qc\yy	.	(y8qc/yy	.	(8qc/	.	.	.	.	.	.	.	.	.	.	.	.	(y>8qC\yy	.	.	.	.	.	.	.	.	.	.	.	.	.
16BB-/L)	.	16BB-/L)yy	.	16B-/L)yy	.	16B-/L)yy	.	16B-/L)	.	.	.	.	.	.	.	.	.	.	.	.	16BB-/L)yy	.	.	.	.	.	.	.	.	.	.	.	.	.
16AAn'/JJ	.	16AAn'/JJyy	.	16An'/JJyy	.	16An'/JJyy	.	16An'/JJ	.	.	.	.	.	.	.	.	.	.	.	.	16AAn'/JJyy	.	.	.	.	.	.	.	.	.	.	.	.	.
8BB-'/L	.	8BB-'/Lyy	.	8B-'/Lyy	.	8B-'/Lyy	.	8B-'/L	.	.	.	.	.	.	.	.	.	.	.	.	8BB-'/Lyy	.	.	.	.	.	.	.	.	.	.	.	.	.
(>8qC\	.	(y>8qC\yy	.	(y>8qc\yy	.	(y8qc/yy	.	(8qc/	.	.	.	.	.	.	.	.	.	.	.	.	(y>8qC\yy	.	.	.	.	.	.	.	.	.	.	.	.	.
16BB-/L)	.	16BB-/L)yy	.	16B-/L)yy	.	16B-/L)yy	.	16B-/L)	.	.	.	.	.	.	.	.	.	.	.	.	16BB-/L)yy	.	.	.	.	.	.	.	.	.	.	.	.	.
16AA'/JJ	.	16AA'/JJyy	.	16A'/JJyy	.	16A'/JJyy	.	16A'/JJ	.	.	.	.	.	.	.	.	.	.	.	.	16AA'/JJyy	.	.	.	.	.	.	.	.	.	.	.	.	.
8BB-'/	.	8BB-'/yy	.	8B-'/yy	.	8B-'/yy	.	8B-'/	.	.	.	.	.	.	.	.	.	.	.	.	8BB-'/yy	.	.	.	.	.	.	.	.	.	.	.	.	.
8r	.	8ryy	.	8ryy	.	8ryy	.	8r	.	.	.	.	.	.	.	.	.	.	.	.	8ryy	.	.	.	.	.	.	.	.	.	.	.	.	.
*	*	*	*	*	*	*	*	*	*	*	*	*	*	*	*	*	*	*	*	*	*clefC4	*	*	*	*	*	*	*	*	*	*	*	*	*
!!LO:DY:rj
=29	=29	=29	=29	=29	=29	=29	=29	=29	=29	=29	=29	=29	=29	=29	=29	=29	=29	=29	=29	=29	=29	=29	=29	=29	=29	=29	=29	=29	=29	=29	=29	=29	=29	=29
!	!	!	!	!	!	!	!	!	!	!	!	!	!	!	!	!	!	!	!	!	!	!	!	!	!	!	!	!	!	!	!	!	!LO:TX:t=[segno]	!
!	!	!	!	!	!	!	!	!	!	!	!	!	!	!	!	!	!	!	!	!	!	!	!	!	!	!	!	!	!	!LO:DY:rj	!	!	!LO:TX:t=P:problem:znak segno na kresce taktowej	!
2.r	.	2.r	.	2.r	.	2.r	.	2.r	.	2.r	.	8E-\	8e-\ 8G\	Niech-	2.r	.	2.r	.	2.r	.	8e-\ 8G\	.	8ee-/ 8e-/	.	2.r	.	8ee-\ 8g\	.	8ee-/ 8g/	f	2.r	.	2.r	.
.	.	.	.	.	.	.	.	.	.	.	.	4E-\	4B-\ 4G^\	-ze	.	.	.	.	.	.	4B-\ 4G\	.	4ee-/ 4e-/	.	.	.	4b-\ 4g\	.	4b-/ 4g/	.	.	.	.	.
.	.	.	.	.	.	.	.	.	.	.	.	4E-\	4g\ 4B-^\	więc	.	.	.	.	.	.	4g\ 4B-\	.	4ee-/ 4e-/	.	.	.	4gg\ 4b-\	.	4gg/ 4b-/	.	.	.	.	.
.	.	.	.	.	.	.	.	.	.	.	.	8E-\	8e-\ 8G\	te	.	.	.	.	.	.	8e-\ 8G\	.	8ee-/ 8e-/	.	.	.	8ee-\ 8g\	.	8ee-/ 8g/	.	.	.	.	.
=30||	=30||	=30||	=30||	=30||	=30||	=30||	=30||	=30||	=30||	=30||	=30||	=30||	=30||	=30||	=30||	=30||	=30||	=30||	=30||	=30||	=30||	=30||	=30||	=30||	=30||	=30||	=30||	=30||	=30||	=30||	=30||	=30||	=30||	=30||
*>E	*	*>E	*	*>E	*	*>E	*	*>E	*	*>E	*	*>E	*>E	*	*>E	*	*>E	*	*>E	*	*>E	*	*>E	*	*>E	*	*>E	*	*>E	*	*>E	*	*>E	*
.	.	.	.	.	.	.	.	.	.	.	.	.	(8qg/ 8qB-/	.	.	.	.	.	.	.	(8qg/ (8qB-/	.	.	.	.	.	(8qgg/ 8qb-/ (8qg/	.	(8qgg/ 8qb-/	.	.	.	.	.
*	*	*	*	*	*	*	*	*	*	*	*	*	*^	*	*	*	*	*	*^	*	*^	*	*	*	*	*	*^	*	*^	*	*	*	*	*
2.r	.	2.r	.	2.r	.	2.r	.	4r	.	2.r	.	8BB-/	8f\L 8A-\)	2rBByy	świę-	2.r	.	2.r	.	4r	2.rg	.	8f\L 8A-\))	2rBByy	.	8ff/L 8b-/	.	2.r	.	8ff\L 8a-\))	2rByy	.	8ff/L 8a-/)	2rcyy	.	4r	.	2.r	.
.	.	.	.	.	.	.	.	.	.	.	.	8BB-/	8en\J 8G|\	.	-te	.	.	.	.	.	.	.	8en\J 8G\	.	.	8gg/J 8b-/	.	.	.	8eeX\J 8g'\	.	.	8een/J 8g'/	.	.	.	.	.	.
.	.	.	.	.	.	.	.	4r	.	.	.	4BB-/	4f\ 4A-\	.	go-	.	.	.	.	4r	.	.	4f\ 4A-\	.	.	4ff/ 4b-/	.	.	.	4ff\ 4a-'\	.	.	4ff/ 4a-'/	.	.	4r	.	.	.
!	!	!	!	!	!	!	!	!	!	!	!	!	!	!	!	!	!	!	!	!LO:TX:a:i:t=Solo	!	!	!	!	!	!	!	!	!	!	!	!	!	!	!	!	!	!	!
.	.	.	.	.	.	.	.	4b-\	.	.	.	4BB-/	4B-/	4B-\	-dy	.	.	.	.	4B-/	.	.	4B-/	4rD	.	4r	.	.	.	4b-/	4rd	.	4r	4r	.	4b-\	.	.	.
*	*	*	*	*	*	*	*	*	*	*	*	*	*	*	*	*	*	*	*	*	*	*	*	*	*	*	*	*	*	*	*	*	*v	*v	*	*	*	*	*
=31	=31	=31	=31	=31	=31	=31	=31	=31	=31	=31	=31	=31	=31	=31	=31	=31	=31	=31	=31	=31	=31	=31	=31	=31	=31	=31	=31	=31	=31	=31	=31	=31	=31	=31	=31	=31	=31	=31
*	*	*	*	*	*	*	*	*	*	*	*	*	*	*	*	*	*	*	*	*	*	*	*	*	*	*^	*	*	*	*	*	*	*	*	*	*	*	*
!	!LO:DY:rj	!	!LO:DY:rj	!	!	!	!	!	!	!	!	!	!	!	!	!	!	!	!	!	!	!	!LO:TX:b:t=2o. col b&colon;	!	!	!	!	!	!	!	!	!	!	!	!	!	!	!	!
8D/L	p	8D/Lyy	py	8r	.	8r	p	(16a-\LL	.	2.r	.	8D/	16A-/LL	8A-\	Nie	2.r	.	2.r	.	(16A-/LL	2.rc	.	(16A-/LL	8D\Lyy	.	2.ff/	2.b-\	.	2.r	.	(16a-/LL	2.a-\	.	2.r	.	(16a-\LL	.	2.r	.
.	.	.	.	.	.	.	.	16b-\JJ)	.	.	.	.	16B-/JJ	.	.	.	.	.	.	16B-/JJ)	.	.	16B-/JJ)	.	.	.	.	.	.	.	16b-/JJ)	.	.	.	.	16b-\JJ)	.	.	.
!	!	!	!	!	!LO:DY:rj	!	!	!	!	!	!	!	!	!	!	!	!	!	!	!	!	!	!	!	!	!	!	!	!	!	!	!	!	!	!	!	!	!	!
8BB-/J	.	8BB-/Jyy	.	8f\ 8d\	p	8a-/ 8B-/	.	(16dd\LL	.	.	.	8BB-/	16d/LL	16B-\LL	za-	.	.	.	.	(16d/LL	.	.	(16d/LL	8BB-\Jyy	.	.	.	.	.	.	(16dd/LL	.	.	.	.	(16dd\LL	.	.	.
.	.	.	.	.	.	.	.	16ff\JJ)	.	.	.	.	16f/JJ	16d\JJ	.	.	.	.	.	16f/JJ)	.	.	16f/JJ)	.	.	.	.	.	.	.	16ff/JJ)	.	.	.	.	16ff\JJ)	.	.	.
*	*	*	*	*2\right	*	*	*	*	*	*	*	*	*	*	*	*	*	*	*	*	*	*	*	*	*	*	*	*	*	*	*	*	*	*	*	*	*	*	*
*	*	*	*	*tremolo	*	*tremolo	*	*	*	*	*	*	*	*	*	*	*	*	*	*	*	*	*	*	*	*	*	*	*	*	*	*	*	*	*	*	*	*	*
8F/L	.	8F/Lyy	.	8f\L 8d\	.	8a-/L 8B-/	.	4.aa-\	.	.	.	4.F\	4.a-/	4.d\	-smu-	.	.	.	.	4.a-/	.	.	4.a-/	8F\Lyy	.	.	.	.	.	.	4.aa-/	.	.	.	.	4.aa-\	.	.	.
8BB-/	.	8BB-/yy	.	8f\ 8d\	.	8a-/ 8B-/	.	.	.	.	.	.	.	.	.	.	.	.	.	.	.	.	.	8BB-\yy	.	.	.	.	.	.	.	.	.	.	.	.	.	.	.
8F/	.	8F/yy	.	8f\ 8d\	.	8a-/ 8B-/	.	.	.	.	.	.	.	.	.	.	.	.	.	.	.	.	.	8F\yy	.	.	.	.	.	.	.	.	.	.	.	.	.	.	.
8BB-/J	.	8BB-/Jyy	.	8f\J 8d\	.	8a-/J 8B-/	.	8dd\	.	.	.	8BB-/	8d/	8A-\	-cą	.	.	.	.	8d/	.	.	8d/	8BB-\Jyy	.	.	.	.	.	.	8dd/	.	.	.	.	8dd\	.	.	.
*	*	*	*	*Xtremolo	*	*Xtremolo	*	*	*	*	*	*	*	*	*	*	*	*	*	*	*	*	*	*	*	*	*	*	*	*	*	*	*	*	*	*	*	*	*
=32	=32	=32	=32	=32	=32	=32	=32	=32	=32	=32	=32	=32	=32	=32	=32	=32	=32	=32	=32	=32	=32	=32	=32	=32	=32	=32	=32	=32	=32	=32	=32	=32	=32	=32	=32	=32	=32	=32	=32
8E-/L	.	8E-/Lyy	.	8r	.	8r	.	(16ff\LL	.	2.r	.	8E-\	16f/LL	8G\	świa-	2.r	.	2.r	.	(16f/LL	2.rc	.	(16f/LL	8E-\Lyy	.	2.ee-/	2.b-\	.	2.r	.	(16ff/LL	2.g\	.	2.r	.	(16ff\LL	.	2.r	.
.	.	.	.	.	.	.	.	16ee-\JJ)	.	.	.	.	16e-/JJ	.	.	.	.	.	.	16e-/JJ)	.	.	16e-/JJ)	.	.	.	.	.	.	.	16ee-/JJ)	.	.	.	.	16ee-\JJ)	.	.	.
8BB-/	.	8BB-/yy	.	8e-\	.	8g/ 8B-/	.	(16dd\LL	.	.	.	8G\	16d/LL	8B-\	-ta	.	.	.	.	(16d/LL	.	.	(16d/LL	8BB-\yy	.	.	.	.	.	.	(16dd/LL	.	.	.	.	(16dd\LL	.	.	.
.	.	.	.	.	.	.	.	16ee-\JJ)	.	.	.	.	16e-/JJ	.	.	.	.	.	.	16e-/JJ)	.	.	16e-/JJ)	.	.	.	.	.	.	.	16ee-/JJ)	.	.	.	.	16ee-\JJ)	.	.	.
8E-/	.	8E-/yy	.	8e-\L	.	8g/L 8B-/	.	4b-\	.	.	.	4E-\	4B-/	4G\	tros-	.	.	.	.	4B-/	.	.	4B-/	8E-\yy	.	.	.	.	.	.	4b-/	.	.	.	.	4b-\	.	.	.
8BB-/J	.	8BB-/Jyy	.	8e-\J	.	8g/J 8B-/	.	.	.	.	.	.	.	.	.	.	.	.	.	.	.	.	.	8BB-\Jyy	.	.	.	.	.	.	.	.	.	.	.	.	.	.	.
4E-\	.	4E-\yy	.	4e-\	.	4g/ 4B-/	.	4g/	.	.	.	4E-\	4G/	4G\	-ki	.	.	.	f	4rg	.	.	4r	4E-\yy	.	.	.	.	.	.	4g/	.	.	.	.	4r	.	.	.
*	*	*	*	*	*	*	*	*	*	*	*	*	*	*	*	*	*	*	*	*v	*v	*	*	*	*	*	*	*	*	*	*	*	*	*	*	*	*	*	*
*	*	*	*	*	*	*	*	*	*	*	*	*	*	*	*	*	*	*	*	*	*	*v	*v	*	*	*	*	*	*	*	*	*	*	*	*	*	*	*
*	*	*	*	*	*	*	*	*	*	*	*	*	*	*	*	*	*	*	*	*	*	*clefF4	*	*	*	*	*	*	*	*	*	*	*	*	*	*	*
=33	=33	=33	=33	=33	=33	=33	=33	=33	=33	=33	=33	=33	=33	=33	=33	=33	=33	=33	=33	=33	=33	=33	=33	=33	=33	=33	=33	=33	=33	=33	=33	=33	=33	=33	=33	=33	=33
*	*	*	*	*	*	*	*	*	*	*	*	*	*	*	*	*	*	*	*	*	*	*	*	*	*	*	*	*	*	*	*	*^	*	*	*	*	*
*	*	*	*	*tremolo	*	*tremolo	*	*	*	*	*	*	*	*	*	*	*	*	*	*	*	*tremolo	*	*	*	*	*	*	*	*	*	*	*	*	*	*	*	*
!LO:TX:t=P:problem:mixed beam	!LO:DY:rj	!LO:TX:t=P:problem:mixed beam	!LO:DY:rj	!	!	!	!LO:DY:rj	!	!LO:DY:rj	!	!LO:DY:rj	!	!	!	!	!	!	!	!	!	!LO:DY:rj	!	!LO:DY:rj	!	!	!LO:DY:rj	!	!	!	!	!	!	!	!	!	!	!	!
8GG/L	f	8GG/Lyy	fy	8e-\L 8G\	.	8e-/L 8B-/	f	8ee-'\L	f	8BB-/L	f	8G\	8e-\ 8B-\	2rBB	Niech-	8G/L 8GG/	.	8e-\L 8B-\	.	8e-/L	f	8G/L 8GG/	f	2.gg/	2.ee-\	f	2.r	.	8ee-'/L	2.b-\	.	2.ee-/	2.b-\	.	2.r	.	8eee-'\L	.
8G\J	.	8G\Jyy	.	8e-\ 8G\	.	8e-/ 8B-/	.	(16ee-\L	.	16BB-/L	.	8G\	8e-\ 8B-\	.	-że	16G/L 16GG/	.	16e-\L 16B-\	.	16e-/L	.	8G/ 8GG/	.	.	.	.	.	.	(16ee-/L	.	.	.	.	.	.	.	(16eee-\L	.
.	.	.	.	.	.	.	.	16dd\JJ	.	16BB-/JJ	.	.	.	.	.	16G/JJ 16GG/	.	16e-\JJ 16B-\	.	16e-/JJ	.	.	.	.	.	.	.	.	16dd/JJ)	.	.	.	.	.	.	.	16ddd\JJ)	.
*tremolo	*	*tremolo	*	*	*	*	*	*	*	*	*	*	*	*	*	*	*	*	*	*	*	*	*	*	*	*	*	*	*	*	*	*	*	*	*	*	*	*
8G\L	.	8G\Lyy	.	8e-\ 8G\	.	8e-/ 8B-/	.	16ee-\LL)	.	4BB-/	.	4G\	4e-\ 4B-\	.	wzo-	4G/ 4GG/	.	4e-\ 4B-\	.	4e-/	.	8G/ 8GG/	.	.	.	.	.	.	16ee-/LL	.	.	.	.	.	.	.	16eee-\LL	.
.	.	.	.	.	.	.	.	16ff\	.	.	.	.	.	.	.	.	.	.	.	.	.	.	.	.	.	.	.	.	16ff/	.	.	.	.	.	.	.	16fff\	.
8G\	.	8G\yy	.	8e-\ 8G\	.	8e-/ 8B-/	.	16gg\	.	.	.	.	.	.	.	.	.	.	.	.	.	8G/ 8GG/	.	.	.	.	.	.	16gg/	.	.	.	.	.	.	.	16ggg\	.
.	.	.	.	.	.	.	.	16ff\JJ	.	.	.	.	.	.	.	.	.	.	.	.	.	.	.	.	.	.	.	.	16ff/JJ	.	.	.	.	.	.	.	16fff\JJ	.
8G\	.	8G\yy	.	8e-\ 8G\	.	8e-/ 8B-/	.	16ee-\LL	.	4r	.	4G\	4B-/	4B-\	-rem	4r	.	4r	.	4r	.	8G/ 8GG/	.	.	.	.	.	.	16ee-/LL	.	.	.	.	.	.	.	16eee-\LL	.
.	.	.	.	.	.	.	.	16dd\	.	.	.	.	.	.	.	.	.	.	.	.	.	.	.	.	.	.	.	.	16dd/	.	.	.	.	.	.	.	16ddd\	.
8G\J	.	8G\Jyy	.	8e-\J 8G\	.	8e-/J 8B-/	.	16cc\	.	.	.	.	.	.	.	.	.	.	.	.	.	8G/J 8GG/	.	.	.	.	.	.	16cc/	.	.	.	.	.	.	.	16ccc\	.
.	.	.	.	.	.	.	.	16b-\JJ	.	.	.	.	.	.	.	.	.	.	.	.	.	.	.	.	.	.	.	.	16b-/JJ	.	.	.	.	.	.	.	16bb-\JJ	.
*Xtremolo	*	*Xtremolo	*	*	*	*	*	*	*	*	*	*	*	*	*	*	*	*	*	*	*	*	*	*	*	*	*	*	*	*	*	*	*	*	*	*	*	*
*	*	*	*	*	*	*	*	*	*	*	*	*	*v	*v	*	*	*	*	*	*	*	*	*	*	*	*	*	*	*	*	*	*	*	*	*	*	*	*
!!LO:PB:g=original
=34	=34	=34	=34	=34	=34	=34	=34	=34	=34	=34	=34	=34	=34	=34	=34	=34	=34	=34	=34	=34	=34	=34	=34	=34	=34	=34	=34	=34	=34	=34	=34	=34	=34	=34	=34	=34	=34
*	*	*	*	*	*	*	*	*	*	*	*	*	*	*	*	*	*	*	*^	*	*	*	*	*	*	*^	*	*	*	*	*	*	*	*	*	*	*
!LO:TX:t=P:problem:mixed beam	!	!LO:TX:t=P:problem:mixed beam	!	!	!	!	!	!	!	!	!	!	!	!	!	!	!	!	!	!	!	!	!	!	!	!LO:HP:a	!	!	!	!	!	!	!	!	!	!	!	!	!
8AA-/L	.	8AA-/Lyy	.	8e-\L 8A-\	.	8f/L 8c/	.	8cc\L	.	8F\L	.	8A-\	8c\	bę-	8A-/L 8AA-/	.	8f\L 8c\	.	8e-/L	2rcyy	.	8A-\L 8AA-\	.	2ff/	2ee-\	<	2cc/	2cc\	.	8cc/L	2a-\	.	2ff/	2cc\	.	8cc\L	.	2.r	.
8A-\	.	8A-\yy	.	8e-\ 8A-\	.	8f/ 8c/	.	16dd\L	<	16F\L	.	8A-\	8c\	-dą	16A-/L 16AA-/	.	16f\L 16c\	.	16e-/L	.	.	8A-\ 8AA-\	.	.	.	.	.	.	.	16dd/L	.	.	.	.	.	16dd\L	.	.	.
.	.	.	.	.	.	.	.	16ee-\JJ	.	16F\JJ	.	.	.	.	16A-/JJ 16AA-/	.	16f\JJ 16c\	.	16e-/JJ	.	.	.	.	.	.	.	.	.	.	16ee-/JJ	.	.	.	.	.	16ee-\JJ	.	.	.
8A-\	.	8A-\yy	.	8e-\ 8A-\	.	8f/ 8c/	.	16ff\LL	.	4F\	.	4A-\	4f\ 4c\	zgo-	4A-/ 4AA-/	.	4f\ 4c\	.	4e-/	.	.	8A-\ 8AA-\	.	.	.	.	.	.	.	16ff/LL	.	.	.	.	.	16ff\LL	.	.	.
.	.	.	.	.	.	.	.	16gg\	.	.	.	.	.	.	.	.	.	.	.	.	.	.	.	.	.	.	.	.	.	16gg/	.	.	.	.	.	16gg\	.	.	.
8A-\J	.	8A-\Jyy	.	8e-\J 8A-\	.	8f/J 8c/	.	16aa-\	.	.	.	.	.	.	.	.	.	.	.	.	.	8A-\J 8AA-\	.	.	.	.	.	.	.	16aa-/	.	.	.	.	.	16aa-\	.	.	.
.	.	.	.	.	.	.	.	16bb-\JJ	[	.	.	.	.	.	.	.	.	.	.	.	.	.	.	.	.	.	.	.	.	16bb-/JJ	.	.	.	.	.	16bb-\JJ	.	.	.
!LO:TX:t=P:problem:mixed beam	!	!LO:TX:t=P:problem:mixed beam	!	!	!	!	!	!	!	!	!	!	!	!	!	!	!	!	!	!	!	!	!	!	!	!	!	!	!	!	!	!	!	!	!	!	!	!	!
8AAn/L	.	8AAn/Lyy	.	8e-\L 8An\	.	8f#X/L 8c^/	.	4ccc^<\	.	4r	.	4An\	4f#X\ 4c\	-dy	4An/ 4AAn/	.	4f#X\ 4c^<\	.	4f#X/	4e-\	.	8An\L 8AAn\	.	4ff#X/	4ee-\	[	4cc^</	4cc\	.	4ccc^</	4cc\	.	4ffn^/	4cc\	.	4ccc\	.	.	.
8An\J	.	8An\Jyy	.	8e-\J 8A\	.	8f#/J 8c/	.	.	.	.	.	.	.	.	.	.	.	.	.	.	.	8A\J 8AA\	.	.	.	.	.	.	.	.	.	.	.	.	.	.	.	.	.
*	*	*	*	*Xtremolo	*	*Xtremolo	*	*	*	*	*	*	*	*	*	*	*	*	*	*	*	*Xtremolo	*	*	*	*	*	*	*	*	*	*	*	*	*	*	*	*	*
*	*	*	*	*	*	*	*	*	*	*	*	*	*	*	*	*	*	*	*	*	*	*	*	*	*	*	*	*	*	*v	*v	*	*	*	*	*	*	*	*
*	*	*	*	*	*	*	*	*	*	*	*	*	*	*	*	*	*	*	*v	*v	*	*	*	*v	*v	*	*	*	*	*	*	*v	*v	*	*	*	*	*
=35	=35	=35	=35	=35	=35	=35	=35	=35	=35	=35	=35	=35	=35	=35	=35	=35	=35	=35	=35	=35	=35	=35	=35	=35	=35	=35	=35	=35	=35	=35	=35	=35	=35	=35	=35
4BB-/	.	4BB-/yy	.	4e-\ 4B-\	.	4g/ 4B-/	.	(16bb-\LL	.	4BB-/	.	8B-\	8g\ 8e-\	dla	4B-\ 4BB-\	.	4g\ 4e-\	.	4g/ 4e-/	.	4B-\ 4BB-\	.	4gg\ 4ee-\	.	4b-/	4b-\	.	(16bb-\LL 16b-\	.	4gg\ 4ee-\	.	(y16bb-\LLyy	.	(16bb-\LL	.
.	.	.	.	.	.	.	.	16eee-\J)	.	.	.	.	.	.	.	.	.	.	.	.	.	.	.	.	.	.	.	16ee-\J)	.	.	.	16eee-\J)yy	.	16eee-\J)	.
.	.	.	.	.	.	.	.	8gg'\J	.	.	.	8G\	8e-\ 8B-\	nas	.	.	.	.	.	.	.	.	.	.	.	.	.	8gg\J 8g'\	.	.	.	8gg'\Jyy	.	8gg'\J	.
4BB-/	.	4BB-/yy	.	4e-\ 4B-\	.	4g/ 4B-/	.	(16gg\LL	.	4BB-/	.	4G\	4e-\ 4B-\	wszys-	4B-\ 4BB-\	.	4g\ 4e-\	.	4g/ 4e-/	.	4B-\ 4BB-\	.	4gg\ 4ee-\	.	4b-/	4b-\	.	(16gg\LL 16g\	.	4gg\ 4ee-\	.	(y16gg\LLyy	.	(16gg\LL	.
.	.	.	.	.	.	.	.	16bb-\J)	.	.	.	.	.	.	.	.	.	.	.	.	.	.	.	.	.	.	.	16b-\J)	.	.	.	16bb-\J)yy	.	16bb-\J)	.
.	.	.	.	.	.	.	.	8ee-'\J	.	.	.	.	.	.	.	.	.	.	.	.	.	.	.	.	.	.	.	8ee-\J 8e-'\	.	.	.	8ee-'\Jyy	.	8ee-'\J	.
4BB-/	.	4BB-/yy	.	4e-\ 4B-\	.	4g/ 4B-/	.	(16ee-\LL	.	4BB-/	.	4E-\	4B-/ 4G/	-tkich	4B-\ 4BB-\	.	4g\ 4e-\	.	8g/L 8e-/	.	4B-\ 4BB-\	.	4gg\ 4ee-\	.	4b-/	4b-\	.	(16ee-\LL 16e-\	.	4gg\ 4ee-\	.	(y16ee-\LLyy	.	(16ee-\LL	.
.	.	.	.	.	.	.	.	16gg\J)	.	.	.	.	.	.	.	.	.	.	.	.	.	.	.	.	.	.	.	16g\J)	.	.	.	16gg\J)yy	.	16gg\J)	.
.	.	.	.	.	.	.	.	8b-'\J	.	.	.	.	.	.	.	.	.	.	8b-/J 8g/	.	.	.	.	.	.	.	.	8b-'\J	.	.	.	8b-'\Jyy	.	8b-'\J	.
*	*	*	*	*	*	*	*	*	*	*	*	*	*	*	*	*	*	*	*	*	*	*	*	*	*v	*v	*	*	*	*	*	*	*	*	*
=36	=36	=36	=36	=36	=36	=36	=36	=36	=36	=36	=36	=36	=36	=36	=36	=36	=36	=36	=36	=36	=36	=36	=36	=36	=36	=36	=36	=36	=36	=36	=36	=36	=36	=36
*	*	*	*	*	*	*	*	*	*	*	*	*	*^	*	*	*	*	*	*^	*	*	*	*	*	*	*	*	*	*	*	*	*	*	*
!LO:TX:t=P:problem:mixed beam	!	!LO:TX:t=P:problem:mixed beam	!	!	!	!	!	!	!	!	!	!	!	!	!	!	!	!	!	!	!	!	!	!	!	!	!	!	!	!	!	!	!	!	!	!
8BB-/L	.	8BB-/Lyy	.	8d\L 8B-\	.	8a-/L 8B-/	.	(16ccc\LL	.	8F\L	.	8BB-/	16c/LL	16A-\LL	w Każ-	8B-\L 8BB-\	.	8a-\L 8d\	.	(16cc/LL	8a-\L	.	8B-\L 8BB-\	.	8ff/L 8b-/	.	8dd\L 8b-\	.	(16cc/LL	.	8aa-\L 8dd\	.	(y16ccc\LLyy	.	(16ccc\LL	.
.	.	.	.	.	.	.	.	16bb-\	.	.	.	.	16B-/JJ	16B-\JJ	.	.	.	.	.	16b-/	.	.	.	.	.	.	.	.	16b-/	.	.	.	16bb-\yy	.	16bb-\	.
8B-\J	.	8B-\Jyy	.	8d\J 8B-\	.	8a-/J 8B-/	.	16aa-\)	.	8F\J	.	8BB-/	16a-/LL	16F\LL	-dy	8B-\J 8BB-\	.	8a-\J 8d\	.	16a-/)	8a-\J	.	8B-\J 8BB-\	.	8ff/J 8b-/	.	8dd\J 8b-\	.	16a-/)	.	8aa-\J 8dd\	.	16aa-\)yy	.	16aa-\)	.
.	.	.	.	.	.	.	.	32r	.	.	.	.	16f/JJ	16A-\JJ	.	.	.	.	.	32r	.	.	.	.	.	.	.	.	32r	.	.	.	32ryy	.	32r	.
.	.	.	.	.	.	.	.	32ff\JJk	.	.	.	.	.	.	.	.	.	.	.	32f|/JJk	.	.	.	.	.	.	.	.	32f|/JJk	.	.	.	32ff|\JJkyy	.	32ff|\JJk	.
8r	.	8ryy	.	4d\ 4B-\	.	4a-/ 4B-/	.	(4ff\	.	8r	.	4BB-/	(4f/	4A-\	czas	8r	.	4a-\ 4d\	.	4f/	4d\	.	8r	.	4ff/ 4b-/	.	4dd\ 4b-\	.	(4f/	.	(4aa-\ 4dd\	.	(y4ff\yy	.	(4ff\	.
!	!	!	!	!	!	!	!	!	!	!LO:TX:t=P:problem:mixed beam	!	!	!	!	!	!	!	!	!	!	!	!	!	!	!	!	!	!	!	!	!	!	!	!	!	!
8BB-/L	.	8BB-/Lyy	.	.	.	.	.	.	.	8F\L	.	.	.	.	.	8B-\L 8BB-\	.	.	.	.	.	.	8BB-/L	.	.	.	.	.	.	.	.	.	.	.	.	.
8E-/J	.	8E-/Jyy	.	8e-\ 8G\	.	8g/ 8B-/	.	8ee-\)	.	8BB-/J	.	8E-\	8e-/)	8G\	.	8B-\J 8E-\	.	8g\ 8e-\	.	8e-/	8e-\	.	8E-/J	.	8ee-/ 8g/	.	8ee-\ 8b-\	.	8e-/)	.	8gg\ 8ee-\)	.	8ee-\)yy	.	8ee-\)	.
8r	.	8ryy	.	8r	.	8r	.	8r	.	8r	.	8r	8r	8r	.	8r	.	8r	.	8r	8rcyy	.	8r	.	8r	.	8r	.	8r	.	8r	.	8r;	.	8r;	.
*	*	*	*	*	*	*	*	*	*	*	*	*	*v	*v	*	*	*	*	*	*v	*v	*	*	*	*	*	*	*	*	*	*	*	*	*	*	*
=37:|!	=37:|!	=37:|!	=37:|!	=37:|!	=37:|!	=37:|!	=37:|!	=37:|!	=37:|!	=37:|!	=37:|!	=37:|!	=37:|!	=37:|!	=37:|!	=37:|!	=37:|!	=37:|!	=37:|!	=37:|!	=37:|!	=37:|!	=37:|!	=37:|!	=37:|!	=37:|!	=37:|!	=37:|!	=37:|!	=37:|!	=37:|!	=37:|!	=37:|!	=37:|!
*>F	*	*>F	*	*>F	*	*>F	*	*>F	*	*>F	*	*>F	*>F	*	*>F	*	*>F	*	*>F	*	*>F	*	*>F	*	*>F	*	*>F	*	*>F	*	*>F	*	*>F	*
*	*	*	*	*	*	*	*	*	*	*	*	*	*	*	*	*	*	*	*	*	*	*	*^	*	*^	*	*	*	*	*	*	*	*	*
!	!	!	!LO:DY:rj	!LO:TX:t=Col b&colon;	!LO:DY:rj	!	!	!	!LO:DY:rj	!	!	!	!	!	!	!LO:DY:rj	!	!	!	!LO:DY:rj	!LO:TX:b:t=Col b&colon;	!LO:DY:rj	!	!	!	!	!	!LO:DY:rj	!	!	!	!	!	!LO:DY:rj	!	!
8.C/L	ff	8.C/Lyy	ffy	8.C/Lyy	ffyy	8cc/ 8e-/ 8G/	.	8gg\ 8cc\ 8e-X\	ff	2.r	.	2.r	2.r	.	8G\ 8C\	ff	8g\ 8e-\	.	8g/ 8c/	ff	8.C/L	ffy	8gg/	8ee-\	.	8cc/	8cc\	ff	8cc/ 8e-/	.	8gg\ 8ee-\	.	8gg\	ff	2.r	.
.	.	.	.	.	.	8r	.	8r	.	.	.	.	.	.	8r	.	8r	.	8r	.	.	.	8rff	8reyy	.	8rcc	8rByy	.	8r	.	8r	.	8r	.	.	.
16BBn/Jk	.	16BBn/Jkyy	.	16BBn/Jkyy	.	.	.	.	.	.	.	.	.	.	.	.	.	.	.	.	16BBn/Jk	.	.	.	.	.	.	.	.	.	.	.	.	.	.	.
*	*	*	*	*	*	*rep	*	*rep	*	*	*	*	*	*	*rep	*	*rep	*	*rep	*	*	*	*rep	*rep	*	*rep	*rep	*	*rep	*	*rep	*	*rep	*	*	*
8C\L	.	8C\Lyy	.	8C/Lyy	.	8cc/ 8e-/ 8G/	.	8gg\ 8cc\ 8e-\	.	.	.	.	.	.	8G\ 8C\	.	8g\ 8e-\	.	8g/ 8c/	.	8C\L	.	8gg/	8ee-\	.	8cc/	8cc\	.	8cc/ 8e-/	.	8gg\ 8ee-\	.	8gg\	.	.	.
8E-\	.	8E-\yy	.	8E-/yy	.	8r	.	8r	.	.	.	.	.	.	8r	.	8r	.	8r	.	8E-\	.	8rff	8reyy	.	8rcc	8rByy	.	8r	.	8r	.	8r	.	.	.
*	*	*	*	*	*	*Xrep	*	*Xrep	*	*	*	*	*	*	*Xrep	*	*Xrep	*	*Xrep	*	*	*	*Xrep	*Xrep	*	*Xrep	*Xrep	*	*Xrep	*	*Xrep	*	*Xrep	*	*	*
*	*	*	*	*	*	*rep	*	*rep	*	*	*	*	*	*	*rep	*	*rep	*	*rep	*	*	*	*rep	*rep	*	*rep	*rep	*	*rep	*	*rep	*	*rep	*	*	*
8G\	.	8G\yy	.	8G/yy	.	8cc/ 8e-/ 8G/	.	8gg\ 8cc\ 8e-\	.	.	.	.	.	.	8G\ 8C\	.	8g\ 8e-\	.	8g/ 8c/	.	8G\	.	8gg/	8ee-\	.	8cc/	8cc\	.	8cc/ 8e-/	.	8gg\ 8ee-\	.	8gg\	.	.	.
8c\J	.	8c\Jyy	.	8c/Jyy	.	8r	.	8r	.	.	.	.	.	.	8r	.	8r	.	8r	.	8c\J	.	8rff	8reyy	.	8rcc	8rByy	.	8r	.	8r	.	8r	.	.	.
*	*	*	*	*	*	*Xrep	*	*Xrep	*	*	*	*	*	*	*Xrep	*	*Xrep	*	*Xrep	*	*	*	*Xrep	*Xrep	*	*Xrep	*Xrep	*	*Xrep	*	*Xrep	*	*Xrep	*	*	*
*	*	*	*	*	*	*	*	*	*	*	*	*	*	*	*	*	*	*	*	*	*	*	*v	*v	*	*	*	*	*	*	*	*	*	*	*	*
*	*	*	*	*	*	*	*	*	*	*	*	*	*	*	*	*	*	*	*	*	*	*	*	*	*v	*v	*	*	*	*	*	*	*	*	*
!!LO:PB:g=original
=38	=38	=38	=38	=38	=38	=38	=38	=38	=38	=38	=38	=38	=38	=38	=38	=38	=38	=38	=38	=38	=38	=38	=38	=38	=38	=38	=38	=38	=38	=38	=38	=38	=38	=38
*	*	*	*	*	*	*	*	*	*	*	*	*	*	*	*	*	*	*	*^	*	*	*	*	*	*	*	*	*	*^	*	*	*	*	*
8.F\L	.	8.F\Lyy	.	8.f\Lyy	.	8a-'/L	.	8aa-\L 8cc\ 8f|\	.	8F\	.	2.r	2.r	.	8A-\ 8F\	.	8f\ 8c\	.	8a-'/L	8c\	.	8.F\L	.	8aa-\ 8ff\	.	8ee-\ 8cc\	.	8cc/ 8f/	.	8aa-/L	8ff\	.	8aa-'\L	.	2.r	.
.	.	.	.	.	.	(16g/L	.	(16aa-\L	.	8r	.	.	.	.	8r	.	8r	.	(16a-/L	8rc	.	.	.	8r	.	8r	.	8r	.	16aa-/L	8rdd	.	(16aa-\L	.	.	.
16En\Jk	.	16En\Jkyy	.	16en\Jkyy	.	16f/JJ)	.	16gg\JJ	.	.	.	.	.	.	.	.	.	.	16g/JJ)	.	.	16En\Jk	.	.	.	.	.	.	.	16gg/JJ	.	.	16gg\JJ)	.	.	.
*	*	*	*	*	*	*	*	*	*	*rep	*	*	*	*	*rep	*	*rep	*	*	*	*	*	*	*rep	*	*rep	*	*rep	*	*	*	*	*	*	*	*
8F\L	.	8F\Lyy	.	8f\Lyy	.	4.f/	.	4.ff\)	.	8F\	.	.	.	.	8A-\ 8F\	.	8f\ 8c\	.	4.f/	4.A-\	.	8F\L	.	8aa-\ 8ff\	.	8ee-\ 8cc\	.	8cc/ 8f/	.	4.ff/	8ff\	.	4.ff\	.	.	.
8A-\	.	8A-\yy	.	8a-\yy	.	.	.	.	.	8r	.	.	.	.	8r	.	8r	.	.	.	.	8A-\	.	8r	.	8r	.	8r	.	.	8rdd	.	.	.	.	.
*	*	*	*	*	*	*	*	*	*	*Xrep	*	*	*	*	*Xrep	*	*Xrep	*	*	*	*	*	*	*Xrep	*	*Xrep	*	*Xrep	*	*	*	*	*	*	*	*
*	*	*	*	*	*	*	*	*	*	*rep	*	*	*	*	*rep	*	*rep	*	*	*	*	*	*	*rep	*	*rep	*	*rep	*	*	*	*	*	*	*	*
8c\	.	8c\yy	.	8cc\yy	.	.	.	.	.	8F\	.	.	.	.	8A-\ 8F\	.	8f\ 8c\	.	.	.	.	8c\	.	8aa-\ 8ff\	.	8ee-\ 8cc\	.	8cc/ 8f/	.	.	8ff\	.	.	.	.	.
8F\J	.	8F\Jyy	.	8f\Jyy	.	8a-/	.	8ccc\	.	8r	.	.	.	.	8r	.	8r	.	8cc/	8a-\	.	8F\J	.	8r	.	8r	.	8r	.	8ccc/	8rdd	.	8ccc\	.	.	.
*	*	*	*	*	*	*	*	*	*	*Xrep	*	*	*	*	*Xrep	*	*Xrep	*	*	*	*	*	*	*Xrep	*	*Xrep	*	*Xrep	*	*	*	*	*	*	*	*
*	*	*	*	*	*	*	*	*	*	*	*	*	*	*	*	*	*	*	*v	*v	*	*	*	*	*	*	*	*	*	*v	*v	*	*	*	*	*
=39	=39	=39	=39	=39	=39	=39	=39	=39	=39	=39	=39	=39	=39	=39	=39	=39	=39	=39	=39	=39	=39	=39	=39	=39	=39	=39	=39	=39	=39	=39	=39	=39	=39	=39
*	*	*	*	*	*	*	*	*	*	*	*	*	*	*	*	*	*	*	*	*	*	*	*^	*	*^	*	*	*	*	*	*	*	*	*
8.G\L	.	8.G\Lyy	.	8.g\Lyy	.	8dd/ 8f/	.	8bbn\ 8dd\ 8g\	.	8F\	.	2.r	2.r	.	8G\	.	8f\ 8d\	.	8bn/ 8g/	.	8.G\L	.	8gg/	8ff\	.	8dd/	8bX\	.	8dd/ 8f/	.	8bbn\ 8dd\	.	8bbn\	.	8bbn\	.
.	.	.	.	.	.	8r	.	8r	.	8r	.	.	.	.	8r	.	8r	.	8r	.	.	.	8rff	8reyy	.	8rcc	8rByy	.	8r	.	8r	.	8r	.	8r	.
16F#X\Jk	.	16F#X\Jkyy	.	16f#X\Jkyy	.	.	.	.	.	.	.	.	.	.	.	.	.	.	.	.	16F#X\Jk	.	.	.	.	.	.	.	.	.	.	.	.	.	.	.
*	*	*	*	*	*	*rep	*	*rep	*	*rep	*	*	*	*	*	*	*rep	*	*rep	*	*	*	*rep	*rep	*	*rep	*rep	*	*rep	*	*rep	*	*rep	*	*rep	*
8G\L	.	8G\Lyy	.	8g\Lyy	.	8dd/ 8f/	.	8bb\ 8dd\ 8g\	.	8F\	.	.	.	.	8G/ 8GG/	.	8f\ 8d\	.	8b/ 8g/	.	8G\L	.	8gg/	8ff\	.	8dd/	8b\	.	8dd/ 8f/	.	8bb\ 8dd\	.	8bb\	.	8bb\	.
8D\	.	8D\yy	.	8d\yy	.	8r	.	8r	.	8r	.	.	.	.	8r	.	8r	.	8r	.	8D\	.	8rff	8reyy	.	8rcc	8rByy	.	8r	.	8r	.	8r	.	8r	.
*	*	*	*	*	*	*Xrep	*	*Xrep	*	*Xrep	*	*	*	*	*	*	*Xrep	*	*Xrep	*	*	*	*Xrep	*Xrep	*	*Xrep	*Xrep	*	*Xrep	*	*Xrep	*	*Xrep	*	*Xrep	*
*	*	*	*	*	*	*rep	*	*rep	*	*rep	*	*	*	*	*	*	*rep	*	*rep	*	*	*	*rep	*rep	*	*rep	*rep	*	*rep	*	*rep	*	*rep	*	*rep	*
8BBn\	.	8BBn\yy	.	8Bn\yy	.	8dd/ 8f/	.	8bb\ 8dd\ 8g\	.	8F\	.	.	.	.	8G/ 8GG/	.	8f\ 8d\	.	8b/ 8g/	.	8BBn\	.	8gg/	8ff\	.	8dd/	8b\	.	8dd/ 8f/	.	8bb\ 8dd\	.	8bb\	.	8bb\	.
8GG\J	.	8GG\Jyy	.	8G\Jyy	.	8r	.	8r	.	8r	.	.	.	.	8r	.	8r	.	8r	.	8GG\J	.	8rff	8reyy	.	8rcc	8rByy	.	8r	.	8r	.	8r	.	8r	.
*	*	*	*	*	*	*Xrep	*	*Xrep	*	*Xrep	*	*	*	*	*	*	*Xrep	*	*Xrep	*	*	*	*Xrep	*Xrep	*	*Xrep	*Xrep	*	*Xrep	*	*Xrep	*	*Xrep	*	*Xrep	*
*	*	*	*	*	*	*	*	*	*	*	*	*	*	*	*	*	*	*	*	*	*	*	*	*	*	*v	*v	*	*	*	*	*	*	*	*	*
=40	=40	=40	=40	=40	=40	=40	=40	=40	=40	=40	=40	=40	=40	=40	=40	=40	=40	=40	=40	=40	=40	=40	=40	=40	=40	=40	=40	=40	=40	=40	=40	=40	=40	=40	=40
8.C/L	.	8.C/Lyy	.	8.c/Lyy	.	8cc/ 8e-/	.	8ccc'\L	.	2.r	.	2.r	2.r	.	8G\ 8C\	.	8e-\ 8c\	.	8cc/L 8e-'>/	.	8.C/L	.	8gg/	8ee-\	.	8ee-\ 8cc\	.	8cc/ 8e-/	.	8ccc\ 8ee-\	.	8ccc'\L	.	8ccc'\L	.
.	.	.	.	.	.	8r	.	(16ccc\L	.	.	.	.	.	.	8r	.	8r	.	(>16cc/L 16e-/	.	.	.	8rff	8reyy	.	8r	.	8r	.	8r	.	(16ccc\L	.	(16ccc\L	.
16BBn/Jk	.	16BBn/Jkyy	.	16Bn/Jkyy	.	.	.	16ddd\JJ)	.	.	.	.	.	.	.	.	.	.	16dd/JJ 16f/	.	16BBn/Jk	.	.	.	.	.	.	.	.	.	.	16ddd\JJ)	.	16ddd\JJ)	.
*	*	*	*	*	*	*rep	*	*	*	*	*	*	*	*	*rep	*	*rep	*	*	*	*	*	*rep	*rep	*	*rep	*	*rep	*	*rep	*	*	*	*	*
8C\L	.	8C\Lyy	.	8c\Lyy	.	8cc/ 8e-/	.	4.eee-\	.	.	.	.	.	.	8G\ 8C\	.	8e-\ 8c\	.	4.ee-/ 4.g/)	.	8C\L	.	8gg/	8ee-\	.	8ee-\ 8cc\	.	8cc/ 8e-/	.	8ccc\ 8ee-\	.	4.eee-\	.	4.eee-\	.
8E-\J	.	8E-\Jyy	.	8e-\Jyy	.	8r	.	.	.	.	.	.	.	.	8r	.	8r	.	.	.	8E-\	.	8rff	8reyy	.	8r	.	8r	.	8r	.	.	.	.	.
*	*	*	*	*	*	*Xrep	*	*	*	*	*	*	*	*	*Xrep	*	*Xrep	*	*	*	*	*	*Xrep	*Xrep	*	*Xrep	*	*Xrep	*	*Xrep	*	*	*	*	*
*	*	*	*	*	*	*rep	*	*	*	*	*	*	*	*	*rep	*	*rep	*	*	*	*	*	*rep	*rep	*	*rep	*	*rep	*	*rep	*	*	*	*	*
8G\L	.	8G\Lyy	.	8g\Lyy	.	8cc/ 8e-/	.	.	.	.	.	.	.	.	8G\ 8C\	.	8e-\ 8c\	.	.	.	8G\	.	8gg/	8ee-\	.	8ee-\ 8cc\	.	8cc/ 8e-/	.	8ccc\ 8ee-\	.	.	.	.	.
8E-\J	.	8E-\Jyy	.	8e-\Jyy	.	8r	.	8ccc\	.	.	.	.	.	.	8r	.	8r	.	8cc/ 8e-/	.	8E-\J	.	8rff	8reyy	.	8r	.	8r	.	8r	.	8ccc\	.	8ccc\	.
*	*	*	*	*	*	*Xrep	*	*	*	*	*	*	*	*	*Xrep	*	*Xrep	*	*	*	*	*	*Xrep	*Xrep	*	*Xrep	*	*Xrep	*	*Xrep	*	*	*	*	*
=41	=41	=41	=41	=41	=41	=41	=41	=41	=41	=41	=41	=41	=41	=41	=41	=41	=41	=41	=41	=41	=41	=41	=41	=41	=41	=41	=41	=41	=41	=41	=41	=41	=41	=41	=41
8.C/L	.	8.C/Lyy	.	8.c/Lyy	.	8cc/ 8e-/ 8G/	.	8gg\ 8cc\ 8e-\	.	2.r	.	2.r	2.r	.	8G\ 8C\	.	8e-\ 8c\	.	8g/ 8e-/	.	8.C/L	.	8gg/	8ee-\	.	8ee-\ 8cc\	.	8cc/ 8e-/	.	8gg\ 8ee-\	.	8gg\	.	2.r	.
.	.	.	.	.	.	8r	.	8r	.	.	.	.	.	.	8r	.	8r	.	8r	.	.	.	8rff	8reyy	.	8r	.	8r	.	8r	.	8r	.	.	.
16BBn/Jk	.	16BBn/Jkyy	.	16Bn/Jkyy	.	.	.	.	.	.	.	.	.	.	.	.	.	.	.	.	16BBn/Jk	.	.	.	.	.	.	.	.	.	.	.	.	.	.
*	*	*	*	*	*	*rep	*	*rep	*	*	*	*	*	*	*rep	*	*rep	*	*rep	*	*	*	*rep	*rep	*	*rep	*	*rep	*	*rep	*	*rep	*	*	*
8C\L	.	8C\Lyy	.	8c\Lyy	.	8cc/ 8e-/ 8G/	.	8gg\ 8cc\ 8e-\	.	.	.	.	.	.	8G\ 8C\	.	8e-\ 8c\	.	8g/ 8e-/	.	8C\L	.	8gg/	8ee-\	.	8ee-\ 8cc\	.	8cc/ 8e-/	.	8gg\ 8ee-\	.	8gg\	.	.	.
8E-\	.	8E-\yy	.	8e-\yy	.	8r	.	8r	.	.	.	.	.	.	8r	.	8r	.	8r	.	8E-\	.	8rff	8reyy	.	8r	.	8r	.	8r	.	8r	.	.	.
*	*	*	*	*	*	*Xrep	*	*Xrep	*	*	*	*	*	*	*Xrep	*	*Xrep	*	*Xrep	*	*	*	*Xrep	*Xrep	*	*Xrep	*	*Xrep	*	*Xrep	*	*Xrep	*	*	*
*	*	*	*	*	*	*rep	*	*rep	*	*	*	*	*	*	*rep	*	*rep	*	*rep	*	*	*	*rep	*rep	*	*rep	*	*rep	*	*rep	*	*rep	*	*	*
8G\	.	8G\yy	.	8g\yy	.	8cc/ 8e-/ 8G/	.	8gg\ 8cc\ 8e-\	.	.	.	.	.	.	8G\ 8C\	.	8e-\ 8c\	.	8g/ 8e-/	.	8G\	.	8gg/	8ee-\	.	8ee-\ 8cc\	.	8cc/ 8e-/	.	8gg\ 8ee-\	.	8gg\	.	.	.
8c\J	.	8c\Jyy	.	8cc\Jyy	.	8r	.	8r	.	.	.	.	.	.	8r	.	8r	.	8r	.	8c\J	.	8rff	8reyy	.	8r	.	8r	.	8r	.	8r	.	.	.
*	*	*	*	*	*	*Xrep	*	*Xrep	*	*	*	*	*	*	*Xrep	*	*Xrep	*	*Xrep	*	*	*	*Xrep	*Xrep	*	*Xrep	*	*Xrep	*	*Xrep	*	*Xrep	*	*	*
=42	=42	=42	=42	=42	=42	=42	=42	=42	=42	=42	=42	=42	=42	=42	=42	=42	=42	=42	=42	=42	=42	=42	=42	=42	=42	=42	=42	=42	=42	=42	=42	=42	=42	=42	=42
*	*	*	*	*	*	*	*	*	*	*	*	*	*	*	*	*	*	*	*^	*	*	*	*	*	*	*	*	*	*	*^	*	*	*	*	*
8.F\L	.	8.F\Lyy	.	8.f\Lyy	.	8a-'/L	.	8aa-\L 8cc\ 8f'\	.	8F\	.	2.r	2.r	.	8A-\ 8F\	.	8f\ 8c\	.	8a-'/L	8f\	.	8.F\L	.	8aa-/	8ff\	.	8ff\ 8cc\	.	8cc/ 8f/	.	8aa-'/L	8ff\	.	8aa-'\L	.	2.r	.
.	.	.	.	.	.	(16g/L	.	(16aa-\L	.	8r	.	.	.	.	8r	.	8r	.	(16a-/L	8rc	.	.	.	8rff	8reyy	.	8r	.	8r	.	(16aa-/L	8rc	.	(16aa-\L	.	.	.
16En\Jk	.	16En\Jkyy	.	16en\Jkyy	.	16f/JJ)	.	16gg\JJ	.	.	.	.	.	.	.	.	.	.	16g/JJ)	.	.	16En\Jk	.	.	.	.	.	.	.	.	16gg/JJ	.	.	16gg\JJ)	.	.	.
*	*	*	*	*	*	*	*	*	*	*rep	*	*	*	*	*rep	*	*rep	*	*	*	*	*	*	*rep	*rep	*	*rep	*	*rep	*	*	*rep	*	*	*	*	*
8F\L	.	8F\Lyy	.	8f\Lyy	.	4.f/	.	4.ff\)	.	8F\	.	.	.	.	8A-\ 8F\	.	8f\ 8c\	.	4.f/	4.A-\	.	8F\L	.	8aa-/	8ff\	.	8ff\ 8cc\	.	8cc/ 8f/	.	4.ff/)	8ff\	.	4.ff\	.	.	.
8A-\	.	8A-\yy	.	8a-\yy	.	.	.	.	.	8r	.	.	.	.	8r	.	8r	.	.	.	.	8A-\	.	8rff	8reyy	.	8r	.	8r	.	.	8rff	.	.	.	.	.
*	*	*	*	*	*	*	*	*	*	*Xrep	*	*	*	*	*Xrep	*	*Xrep	*	*	*	*	*	*	*Xrep	*Xrep	*	*Xrep	*	*Xrep	*	*	*Xrep	*	*	*	*	*
*	*	*	*	*	*	*	*	*	*	*rep	*	*	*	*	*rep	*	*rep	*	*	*	*	*	*	*rep	*rep	*	*rep	*	*rep	*	*	*rep	*	*	*	*	*
8c\	.	8c\yy	.	8cc\yy	.	.	.	.	.	8F\	.	.	.	.	8A-\ 8F\	.	8f\ 8c\	.	.	.	.	8c\	.	8aa-/	8ff\	.	8ff\ 8cc\	.	8cc/ 8f/	.	.	8ff\	.	.	.	.	.
8F\J	.	8F\Jyy	.	8f\Jyy	.	8a-/	.	8ccc\	.	8r	.	.	.	.	8r	.	8r	.	8cc/	8a-\	.	8F\J	.	8rff	8reyy	.	8r	.	8r	.	8ccc/	8rff	.	8ccc\	.	.	.
*	*	*	*	*	*	*	*	*	*	*Xrep	*	*	*	*	*Xrep	*	*Xrep	*	*	*	*	*	*	*Xrep	*Xrep	*	*Xrep	*	*Xrep	*	*	*Xrep	*	*	*	*	*
*	*	*	*	*	*	*	*	*	*	*	*	*	*	*	*	*	*	*	*v	*v	*	*	*	*	*	*	*	*	*	*	*v	*v	*	*	*	*	*
!!LO:PB:g=original
=43	=43	=43	=43	=43	=43	=43	=43	=43	=43	=43	=43	=43	=43	=43	=43	=43	=43	=43	=43	=43	=43	=43	=43	=43	=43	=43	=43	=43	=43	=43	=43	=43	=43	=43	=43
*	*	*	*	*	*	*	*	*	*	*	*	*	*	*	*	*	*	*	*	*	*	*	*	*	*	*^	*	*	*	*	*	*	*	*	*
8.G\L	.	8.G\Lyy	.	8.g\Lyy	.	8dd/ 8f/	.	8bbn\ 8dd\ 8g\	.	8F\	.	2.r	2.r	.	8G\	.	8f\ 8d\	.	8bn/ 8g/	.	8.G\L	.	8gg/	8ff\	.	8dd/	8bX\	.	8dd/ 8f/	.	8bbn\ 8ff\	.	8bbn\	.	8bbn\	.
.	.	.	.	.	.	8r	.	8r	.	8r	.	.	.	.	8r	.	8r	.	8r	.	.	.	8rff	8reyy	.	8rcc	8rByy	.	8r	.	8r	.	8r	.	8r	.
16F#X\Jk	.	16F#X\Jkyy	.	16f#X\Jkyy	.	.	.	.	.	.	.	.	.	.	.	.	.	.	.	.	16F#X\Jk	.	.	.	.	.	.	.	.	.	.	.	.	.	.	.
*	*	*	*	*	*	*rep	*	*rep	*	*rep	*	*	*	*	*	*	*rep	*	*rep	*	*	*	*rep	*rep	*	*rep	*rep	*	*rep	*	*rep	*	*rep	*	*rep	*
8G\L	.	8G\Lyy	.	8g\Lyy	.	8dd/ 8f/	.	8bb\ 8dd\ 8g\	.	8F\	.	.	.	.	8G/ 8GG/	.	8f\ 8d\	.	8b/ 8g/	.	8G\L	.	8gg/	8ff\	.	8dd/	8b\	.	8dd/ 8f/	.	8bb\ 8ff\	.	8bb\	.	8bb\	.
8D\	.	8D\yy	.	8d\yy	.	8r	.	8r	.	8r	.	.	.	.	8r	.	8r	.	8r	.	8D\	.	8rff	8reyy	.	8rcc	8rByy	.	8r	.	8r	.	8r	.	8r	.
*	*	*	*	*	*	*Xrep	*	*Xrep	*	*Xrep	*	*	*	*	*	*	*Xrep	*	*Xrep	*	*	*	*Xrep	*Xrep	*	*Xrep	*Xrep	*	*Xrep	*	*Xrep	*	*Xrep	*	*Xrep	*
*	*	*	*	*	*	*rep	*	*rep	*	*rep	*	*	*	*	*	*	*rep	*	*rep	*	*	*	*rep	*rep	*	*rep	*rep	*	*rep	*	*rep	*	*rep	*	*rep	*
8BBn\	.	8BBn\yy	.	8Bn\yy	.	8dd/ 8f/	.	8bb\ 8dd\ 8g\	.	8F\	.	.	.	.	8G/ 8GG/	.	8f\ 8d\	.	8b/ 8g/	.	8BBn\	.	8gg/	8ff\	.	8dd/	8b\	.	8dd/ 8f/	.	8bb\ 8ff\	.	8bb\	.	8bb\	.
8GG\J	.	8GG\Jyy	.	8G\Jyy	.	8r	.	8r	.	8r	.	.	.	.	8r	.	8r	.	8r	.	8GG\J	.	8rff	8reyy	.	8rcc	8rByy	.	8r	.	8r	.	8r	.	8r	.
*	*	*	*	*	*	*Xrep	*	*Xrep	*	*Xrep	*	*	*	*	*	*	*Xrep	*	*Xrep	*	*	*	*Xrep	*Xrep	*	*Xrep	*Xrep	*	*Xrep	*	*Xrep	*	*Xrep	*	*Xrep	*
*	*	*	*	*	*	*	*	*	*	*	*	*	*	*	*	*	*	*	*	*	*	*	*v	*v	*	*	*	*	*	*	*	*	*	*	*	*
*	*	*	*	*	*	*	*	*	*	*	*	*	*	*	*	*	*	*	*	*	*	*	*	*	*v	*v	*	*	*	*	*	*	*	*	*
=44	=44	=44	=44	=44	=44	=44	=44	=44	=44	=44	=44	=44	=44	=44	=44	=44	=44	=44	=44	=44	=44	=44	=44	=44	=44	=44	=44	=44	=44	=44	=44	=44	=44	=44
4C/	.	4C/	.	4c\	.	4cc/ 4e-/ 4G/	.	4ccc\ 4ee-\ 4g\	.	2.r	.	2.ryy	2.ryy	.	8G\ 8C\	.	8e-\ 8c\	.	8cc/ 8g/	.	8C\L	.	8gg\ 8ee-\	.	8cc\L	.	4cc/ 4e-/	.	4ccc\ 4ee-\	.	4ccc\	.	4ccc\	.
.	.	.	.	.	.	.	.	.	.	.	.	.	.	.	16G\LL 16C\	.	16e-\LL 16c\	.	16cc/LL 16e-/	.	16G\L 16C\	.	16gg\LL 16ee-\	.	16cc\L	.	.	.	.	.	.	.	.	.
.	.	.	.	.	.	.	.	.	.	.	.	.	.	.	16G\JJ 16C\	.	16e-\JJ 16c\	.	16cc/JJ 16e-/	.	16G\JJ 16C\	.	16gg\JJ 16ee-\	.	16cc\JJ	.	.	.	.	.	.	.	.	.
4r	.	16r	.	16r	.	16r	.	16r	.	.	.	.	.	.	8G\ 8C\	.	8e-\ 8c\	.	8cc/ 8e-/	.	8G\ 8C\	.	8gg\ 8ee-\	.	8cc\	.	4r	.	4r	.	4r	.	4r	.
!	!	!	!	!	!	!LO:TX:t=Uniſ	!	!	!	!	!	!	!	!	!	!	!	!	!	!	!	!	!	!	!	!	!	!	!	!	!	!	!	!
.	.	(16e-\LL	.	(16ee-\LL	.	(y>16ee-\LLyy	.	(>16ee-\LL	.	.	.	.	.	.	.	.	.	.	.	.	.	.	.	.	.	.	.	.	.	.	.	.	.	.
.	.	16d\	.	16dd\	.	16dd\yy	.	16dd\	.	.	.	.	.	.	8r	.	8r	.	8r	.	8r	.	8r	.	8r	.	.	.	.	.	.	.	.	.
.	.	16c\JJ	.	16cc\JJ	.	16cc\JJyy	.	16cc\JJ	.	.	.	.	.	.	.	.	.	.	.	.	.	.	.	.	.	.	.	.	.	.	.	.	.	.
4r	.	16B-\LL	.	16b-\LL	.	16b-\LLyy	.	16b-/LL	.	.	.	.	.	.	4r	.	4r	.	4r	.	4r	.	4r	.	4r	.	4r	.	4r	.	4r	.	4r	.
.	.	16c\	.	16cc\	.	16cc\yy	.	16cc/	.	.	.	.	.	.	.	.	.	.	.	.	.	.	.	.	.	.	.	.	.	.	.	.	.	.
.	.	16B-\	.	16b-\	.	16b-\yy	.	16b-/	.	.	.	.	.	.	.	.	.	.	.	.	.	.	.	.	.	.	.	.	.	.	.	.	.	.
.	.	16A-\JJ	.	16a-\JJ	.	16a-\JJyy	.	16a-/JJ	.	.	.	.	.	.	.	.	.	.	.	.	.	.	.	.	.	.	.	.	.	.	.	.	.	.
=45	=45	=45	=45	=45	=45	=45	=45	=45	=45	=45	=45	=45	=45	=45	=45	=45	=45	=45	=45	=45	=45	=45	=45	=45	=45	=45	=45	=45	=45	=45	=45	=45	=45	=45
2.r	.	[4G\)	.	[4g\)	.	[y4g/)yy	.	[4g/)	.	2.r	.	2.ryy	2.ryy	.	8r	.	8r	.	8r	.	8r	.	8r	.	8r	.	2.r	.	2.r	.	2.r	.	2.r	.
.	.	.	.	.	.	.	.	.	.	.	.	.	.	.	16G\LL 16C\	.	16e-\LL 16c\	.	16cc/LL 16e-/	.	16G\LL 16C\	.	16gg\LL 16ee-\	.	16cc\LL	.	.	.	.	.	.	.	.	.
.	.	.	.	.	.	.	.	.	.	.	.	.	.	.	16G\J 16C\	.	16e-\JJ 16c\	.	16cc/JJ 16e-/	.	16G\JJ 16C\	.	16gg\JJ 16ee-\	.	16cc\JJ	.	.	.	.	.	.	.	.	.
.	.	(16G\LL]	.	16g\LL]	.	16g/LL]yy	.	16g/LL]	.	.	.	.	.	.	8G\J 8C\	.	8e-\ 8c\	.	8cc/ 8e-/	.	8G\ 8C\	.	8gg\ 8ee-\	.	8cc\	.	.	.	.	.	.	.	.	.
.	.	16c\	.	(16cc\	.	(y16cc/yy	.	(16cc/	.	.	.	.	.	.	.	.	.	.	.	.	.	.	.	.	.	.	.	.	.	.	.	.	.	.
.	.	16B-\	.	16b-\	.	16b-/yy	.	16b-/	.	.	.	.	.	.	8r	.	8r	.	8r	.	8r	.	8r	.	8r	.	.	.	.	.	.	.	.	.
.	.	16A-\JJ	.	16a-\JJ	.	16a-/JJyy	.	16a-/JJ	.	.	.	.	.	.	.	.	.	.	.	.	.	.	.	.	.	.	.	.	.	.	.	.	.	.
.	.	16G\LL	.	16g\LL	.	16g/LLyy	.	16g/LL	.	.	.	.	.	.	4r	.	4r	.	4r	.	4r	.	4r	.	4r	.	.	.	.	.	.	.	.	.
.	.	16A-\	.	16a-\	.	16a-/yy	.	16a-/	.	.	.	.	.	.	.	.	.	.	.	.	.	.	.	.	.	.	.	.	.	.	.	.	.	.
.	.	16G\	.	16g\	.	16g/yy	.	16g/	.	.	.	.	.	.	.	.	.	.	.	.	.	.	.	.	.	.	.	.	.	.	.	.	.	.
.	.	16F\JJ	.	16f\JJ	.	16f/JJyy	.	16f/JJ	.	.	.	.	.	.	.	.	.	.	.	.	.	.	.	.	.	.	.	.	.	.	.	.	.	.
=46	=46	=46	=46	=46	=46	=46	=46	=46	=46	=46	=46	=46	=46	=46	=46	=46	=46	=46	=46	=46	=46	=46	=46	=46	=46	=46	=46	=46	=46	=46	=46	=46	=46	=46
8r	.	8E-\L)	.	8e-\L)	.	[4e-/)	.	[4e-/)	.	8r	.	2.ryy	2.ryy	.	8r	.	8r	.	8r	.	8r	.	8r	.	8r	.	4r	.	4r	.	4r	.	4r	.
16E-\LL	.	16E-\L	.	(16g\L 16B-\	.	.	.	.	.	16BB-/LL	.	.	.	.	16E-\LL	.	16g\LL 16B-\	.	16g/LL 16e-/	.	16G\LL 16E-\	.	16gg\LL 16ee-\	.	16b-/LL 16B-/	.	.	.	.	.	.	.	.	.
16E-\J	.	16E-\JJ	.	16g\JJ 16B-\)	.	.	.	.	.	16BB-/J	.	.	.	.	16E-\J	.	16g\J 16B-\	.	16g/J 16e-/	.	16G\J 16E-\	.	16gg\J 16ee-\	.	16b-/J 16B-/	.	.	.	.	.	.	.	.	.
!	!	!	!	!	!	!LO:TX:t=P:problem:mixed beam	!	!LO:TX:t=P:problem:mixed beam	!	!	!	!	!	!	!	!	!	!	!	!	!	!	!	!	!	!	!	!	!	!	!	!	!	!
8E-\J	.	8E-\	.	8g\ 8B-\	.	16e-/LL]	.	16e-/LL]	.	8BB-/J	.	.	.	.	8E-\J	.	8g\J 8B-\	.	8g/J 8e-/	.	8G\J 8E-\	.	8gg\J 8ee-\	.	8b-/J 8B-/	.	16r	.	16r	.	16r	.	16r	.
!	!	!	!	!	!	!	!	!	!	!	!	!	!	!	!	!	!	!	!	!	!	!	!	!	!	!	!LO:TX:a:i:t=due	!	!LO:TX:a:i:t=due	!	!	!	!	!
.	.	.	.	.	.	(>16ee-\	.	(16gg\	.	.	.	.	.	.	.	.	.	.	.	.	.	.	.	.	.	.	(>16ee-\LL	.	(16gg\LL	.	(16gg\LL	.	(16eee-\LL	.
8r	.	8r	.	8r	.	16dd\	.	16ff\	.	8r	.	.	.	.	8r	.	8r	.	8r	.	8r	.	8r	.	8r	.	16dd\	.	16ff\	.	16ff\	.	16ddd\	.
.	.	.	.	.	.	16cc\JJ	.	16ee-\JJ	.	.	.	.	.	.	.	.	.	.	.	.	.	.	.	.	.	.	16cc\JJ	.	16ee-\JJ	.	16ee-\JJ	.	16ccc\JJ	.
4r	.	4r	.	4r	.	16b-/LL	.	16dd\LL	.	4r	.	.	.	.	4r	.	4r	.	4r	.	4r	.	4r	.	4r	.	16b-\LL	.	16dd\LL	.	16dd\LL	.	16bb-\LL	.
.	.	.	.	.	.	16cc/	.	16ee-\	.	.	.	.	.	.	.	.	.	.	.	.	.	.	.	.	.	.	16cc\	.	16ee-\	.	16ee-\	.	16ccc\	.
.	.	.	.	.	.	16b-/	.	16dd\	.	.	.	.	.	.	.	.	.	.	.	.	.	.	.	.	.	.	16b-\	.	16dd\	.	16dd\	.	16bb-\	.
.	.	.	.	.	.	16a-/JJ	.	16cc\JJ	.	.	.	.	.	.	.	.	.	.	.	.	.	.	.	.	.	.	16a-\JJ	.	16cc\JJ	.	16cc\JJ	.	16aa-\JJ	.
!!LO:PB:g=original
=47	=47	=47	=47	=47	=47	=47	=47	=47	=47	=47	=47	=47	=47	=47	=47	=47	=47	=47	=47	=47	=47	=47	=47	=47	=47	=47	=47	=47	=47	=47	=47	=47	=47	=47
!	!	!	!	!	!	!LO:TX:t=P:problem:brak zakończenia łuku	!LO:TX:t=P:problem:brak zakończenia łuku	!	!	!	!	!	!	!	!	!	!	!	!	!	!	!	!	!	!	!	!LO:TX:t=P:problem:brak zakończenia łuku	!	!LO:TX:t=P:problem:brak zakończenia łuku	!	!LO:TX:t=P:problem:brak zakończenia łuku	!	!LO:TX:t=P:problem:brak zakończenia łuku	!
8r	.	8r	.	8r	.	[4g/)	.	[4b-\)	.	8r	.	2.r	2.r	.	8r	.	8r	.	8r	.	8r	.	8r	.	8r	.	[4g/)	.	[4b-\)	.	[4b-\)	.	[4gg\)	.
16E-\LL	.	16E-\LL	.	16g\LL 16B-\	.	.	.	.	.	16BB-/LL	.	.	.	.	16E-\LL	.	16g\LL 16B-\	.	16g/LL 16e-/	.	16G\LL 16E-\	.	16gg\LL 16ee-\	.	16b-/LL 16B-/	.	.	.	.	.	.	.	.	.
16E-\J	.	16E-\J	.	16g\J 16B-\	.	.	.	.	.	16BB-/J	.	.	.	.	16E-\J	.	16g\J 16B-\	.	16g/J 16e-/	.	16G\J 16E-\	.	16gg\J 16ee-\	.	16b-/J 16B-/	.	.	.	.	.	.	.	.	.
8E-\J	.	8E-\J	.	8g\J 8B-\	.	16g\LL]	.	16b-\LL]	.	8BB-/J	.	.	.	.	8E-\J	.	8g\J 8B-\	.	8g/J 8e-/	.	8G\J 8E-\	.	8gg\J 8ee-\	.	8b-/J 8B-/	.	16g\LL]	.	16b-\LL]	.	16b-\LL]	.	16gg\LL]	.
.	.	.	.	.	.	(16gg\	.	(16bb-\	.	.	.	.	.	.	.	.	.	.	.	.	.	.	.	.	.	.	(16gg\	.	(16bb-\	.	(16bb-\	.	(16ggg\	.
8r	.	8r	.	8r	.	16ff\	.	16aa-\	.	8r	.	.	.	.	8r	.	8r	.	8r	.	8r	.	8r	.	8r	.	16ff\	.	16aa-\	.	16aa-\	.	16fff\	.
.	.	.	.	.	.	16ee-\JJ	.	16gg\JJ	.	.	.	.	.	.	.	.	.	.	.	.	.	.	.	.	.	.	16ee-\JJ	.	16gg\JJ	.	16gg\JJ	.	16eee-\JJ	.
4r	.	4r	.	4r	.	16dd\LL	.	16ff\LL	.	4r	.	.	.	.	4r	.	4r	.	4r	.	4r	.	4r	.	4r	.	16dd\LL	.	16ff\LL	.	16ff\LL	.	16ddd\LL	.
.	.	.	.	.	.	16ee-\	.	16gg\	.	.	.	.	.	.	.	.	.	.	.	.	.	.	.	.	.	.	16ee-\	.	16gg\	.	16gg\	.	16eee-\	.
.	.	.	.	.	.	16dd\	.	16ff\	.	.	.	.	.	.	.	.	.	.	.	.	.	.	.	.	.	.	16dd\	.	16ff\	.	16ff\	.	16ddd\	.
.	.	.	.	.	.	16cc\JJ	.	16ee-\JJ	.	.	.	.	.	.	.	.	.	.	.	.	.	.	.	.	.	.	16cc\JJ	.	16ee-\JJ	.	16ee-\JJ	.	16ccc\JJ)	.
=48	=48	=48	=48	=48	=48	=48	=48	=48	=48	=48	=48	=48	=48	=48	=48	=48	=48	=48	=48	=48	=48	=48	=48	=48	=48	=48	=48	=48	=48	=48	=48	=48	=48	=48
*	*	*	*	*	*	*	*	*	*	*	*	*	*	*	*	*	*	*	*	*	*	*	*	*	*^	*	*	*	*	*	*	*	*	*
8BB-/	.	8BB-\L	.	8r	.	16b-\LL)	.	16dd\LL)	.	2.r	.	2.r	2.r	.	2.BB-/	.	2.d\ 2.F\	.	2.f/ 2.d/	.	2.A-\ 2.BB-\	.	2.ff/ 2.b-/	.	2.dd/	2.b-\	.	16b-\LL)	.	16dd\LL)	.	16dd\LL)	.	16bb-\LL	.
.	.	.	.	.	.	(16ee-\	.	(16gg\	.	.	.	.	.	.	.	.	.	.	.	.	.	.	.	.	.	.	.	16ee-\	.	(16gg\	.	(16gg\	.	(16eee-\	.
8r	.	8d\J 8F\	.	8B-/ 8A-/	.	16dd\	.	16ff\	.	.	.	.	.	.	.	.	.	.	.	.	.	.	.	.	.	.	.	16dd\	.	16ff\	.	16ff\	.	16ddd\	.
.	.	.	.	.	.	16cc\JJ	.	16ee-\JJ	.	.	.	.	.	.	.	.	.	.	.	.	.	.	.	.	.	.	.	16cc\JJ	.	16ee-\JJ	.	16ee-\JJ	.	16ccc\JJ	.
*	*	*rep	*	*	*	*	*	*	*	*	*	*	*	*	*	*	*	*	*	*	*	*	*	*	*	*	*	*	*	*	*	*	*	*	*
8BB-/	.	8BB-\L	.	8r	.	16b-/LL	.	16dd\LL	.	.	.	.	.	.	.	.	.	.	.	.	.	.	.	.	.	.	.	16b-\LL	.	16dd\LL	.	16dd\LL	.	16bb-\LL	.
.	.	.	.	.	.	16cc/	.	16ee-\	.	.	.	.	.	.	.	.	.	.	.	.	.	.	.	.	.	.	.	16cc\	.	16ee-\	.	16ee-\	.	16ccc\	.
8r	.	8d\J 8F\	.	8B-/ 8A-/	.	16b-/	.	16dd\	.	.	.	.	.	.	.	.	.	.	.	.	.	.	.	.	.	.	.	16b-\	.	16dd\	.	16dd\	.	16bb-\	.
.	.	.	.	.	.	16a-/JJ	.	16cc\JJ	.	.	.	.	.	.	.	.	.	.	.	.	.	.	.	.	.	.	.	16a-\JJ	.	16cc\JJ	.	16cc\JJ	.	16aa-\JJ	.
*	*	*Xrep	*	*	*	*	*	*	*	*	*	*	*	*	*	*	*	*	*	*	*	*	*	*	*	*	*	*	*	*	*	*	*	*	*
*	*	*rep	*	*	*	*	*	*	*	*	*	*	*	*	*	*	*	*	*	*	*	*	*	*	*	*	*	*	*	*	*	*	*	*	*
8BB-/	.	8BB-\L	.	8r	.	16g/LL	.	16b-/LL	.	.	.	.	.	.	.	.	.	.	.	.	.	.	.	.	.	.	.	16g/LL	.	16b-/LL	.	16b-/LL	.	16gg\LL	.
.	.	.	.	.	.	16a-/	.	16cc/	.	.	.	.	.	.	.	.	.	.	.	.	.	.	.	.	.	.	.	16a-/	.	16cc/	.	16cc/	.	16aa-\	.
8r	.	8d\J 8F\	.	8B-/ 8A-/	.	16g/	.	16b-/	.	.	.	.	.	.	.	.	.	.	.	.	.	.	.	.	.	.	.	16g/	.	16b-/	.	16b-/	.	16gg\	.
.	.	.	.	.	.	16f/JJ	.	16a-/JJ)	.	.	.	.	.	.	.	.	.	.	.	.	.	.	.	.	.	.	.	16f/JJ	.	16a-/JJ	.	16a-/JJ	.	16ff\JJ)	.
*	*	*Xrep	*	*	*	*	*	*	*	*	*	*	*	*	*	*	*	*	*	*	*	*	*	*	*	*	*	*	*	*	*	*	*	*	*
*	*	*	*	*	*	*	*	*	*	*	*	*	*	*	*	*	*	*	*	*	*	*	*	*	*v	*v	*	*	*	*	*	*	*	*	*
=49	=49	=49	=49	=49	=49	=49	=49	=49	=49	=49	=49	=49	=49	=49	=49	=49	=49	=49	=49	=49	=49	=49	=49	=49	=49	=49	=49	=49	=49	=49	=49	=49	=49	=49
!	!	!	!	!	!	!	!	!	!	!	!	!	!	!	!	!	!	!	!	!	!	!	!	!	!	!	!	!	!LO:TX:t=P:problem:brak zakończenia łuku	!	!LO:TX:t=P:problem:brak zakończenia łuku	!	!	!
8E-\	.	8E-\	.	8B-/ 8G/	.	8e-/)	.	8g/	.	2.r	.	8E-\	8e-\ 8G\	Niech-	8E-\	.	8e-\ 8G\	.	8e-/	.	8G\ 8E-\	.	8ee-/ 8g/	.	8ee-\ 8b-\	.	8g/ 8e-/	.	8g/)	.	8g/)	.	8ee-\	.
*	*	*	*	*	*	*	*	*	*	*	*	*	*	*	*	*	*	*	*	*	*clefC4	*	*	*	*	*	*	*	*	*	*	*	*	*
8r	.	8r	.	8r	.	8r	.	8r	.	.	.	4E-\	4B-\ 4G\	-że	8r	.	8r	.	8r	.	4B-/ 4G^/	.	4ee-/ 4e-/	.	8r	.	4b-\ 4g^<\	.	4b-/ 4g^/	.	8r	.	8r	.
4r	.	4r	.	4r	.	4r	.	4r	.	.	.	.	.	.	4r	.	4r	.	4r	.	.	.	.	.	4r	.	.	.	.	.	4r	.	4r	.
.	.	.	.	.	.	.	.	.	.	.	.	4E-\	4g\ 4B-\	więc	.	.	.	.	.	.	4g\ 4B-^<\	.	4ee-/ 4e-/	.	.	.	4gg\ 4b-^<\	.	4gg\ 4b-^<\	.	.	.	.	.
!	!	!	!	!	!	!	!	!	!	!	!	!	!	!	!	!	!	!	!	!	!	!	!	!	!	!	!	!	!	!	!	!	!LO:TX:b:i:t=D'al segno al fine  e poi Polonez\nal fine  e Coda.	!
!	!	!	!	!	!	!	!	!	!	!	!	!	!	!	!	!	!	!	!	!	!	!	!	!	!	!	!	!	!	!	!	!	!LO:TX:t=[segno]	!
!	!	!	!	!	!	!	!	!	!	!	!	!	!	!	!	!	!	!	!	!	!	!	!	!	!	!	!	!	!	!	!	!	!LO:TX:t=P:problem:znak segno na kresce taktowej	!
4r	.	4r	.	4r	.	4r	.	4r	.	.	.	.	.	.	4r	.	4r	.	4r	.	.	.	.	.	4r	.	.	.	.	.	4r	.	4r	.
.	.	.	.	.	.	.	.	.	.	.	.	8E-\	8e-\ 8G\	te	.	.	.	.	.	.	8e-\ 8G\	.	8ee-/ 8e-/	.	.	.	8ee-\ 8g\	.	8ee-\ 8g\	.	.	.	.	.
*	*	*	*	*	*	*	*	*	*	*	*	*	*	*	*	*	*	*	*	*	*clefF4	*	*	*	*	*	*	*	*	*	*	*	*	*
!!LO:PB:g=original
=50||	=50||	=50||	=50||	=50||	=50||	=50||	=50||	=50||	=50||	=50||	=50||	=50||	=50||	=50||	=50||	=50||	=50||	=50||	=50||	=50||	=50||	=50||	=50||	=50||	=50||	=50||	=50||	=50||	=50||	=50||	=50||	=50||	=50||	=50||
!!!OMD: Coda.
*>G	*	*>G	*	*>G	*	*>G	*	*>G	*	*>G	*	*>G	*>G	*	*>G	*	*>G	*	*>G	*	*>G	*	*>G	*	*>G	*	*>G	*	*>G	*	*>G	*	*>G	*
*	*	*	*	*	*	*	*	*	*	*	*	*	*	*	*	*	*	*	*	*	*	*	*	*	*	*	*	*	*^	*	*	*	*	*
!LO:TX:t=P:problem:mixed beam	!	!LO:TX:t=P:problem:mixed beam	!	!	!	!	!	!	!	!	!	!	!	!	!	!	!	!	!	!	!	!	!	!	!	!	!	!	!	!	!	!	!	!	!
8G\L	.	8G\Lyy	.	8d\L 8Bn\	.	8f/L 8G/	.	(16aa-X\LL	.	2.r	.	2.r	2.r	.	8GG/L	.	8f\L 8Bn\	.	(16a-X/LL	.	8G\L 8GG\	.	8gg/L 8g/	.	8dd\L 8bX'\	.	8dd/L 8f'/	.	16aa-X'/LL	8bn\L	.	(y16aaa-X\LLyy	.	(16aaa-X\LL	.
.	.	.	.	.	.	.	.	16gg\	.	.	.	.	.	.	.	.	.	.	16g/	.	.	.	.	.	.	.	.	.	(16gg/	.	.	16ggg\yy	.	16ggg\	.
8GG/J	.	8GG/Jyy	.	8d\J 8B\	.	8f/J 8G/	.	16ff\)	.	.	.	.	.	.	8GG/J	.	8f\J 8B\	.	16f/)	.	8G\J 8GG\	.	8gg/J 8g/	.	8dd\J 8b'\	.	8dd/J 8f'/	.	16ff/	8b\J	.	16fff\)yy	.	16fff\)	.
.	.	.	.	.	.	.	.	32r	.	.	.	.	.	.	.	.	.	.	32r	.	.	.	.	.	.	.	.	.	32r	.	.	32ryy	.	32r	.
.	.	.	.	.	.	.	.	32dd'\JJk	.	.	.	.	.	.	.	.	.	.	32d'/JJk	.	.	.	.	.	.	.	.	.	32dd'/JJk)	.	.	32ddd'\JJkyy	.	32ddd'\JJk	.
8r	.	8ryy	.	(4d\ 4B\	.	(4f/ 4G/	.	(4ff\	.	.	.	.	.	.	8r	.	(4d\ 4B\	.	(4f/	.	8r	.	[4gg/ [4g/	.	(4dd\ 4b\	.	(4dd/ 4f/	.	4ff/	4b\	.	(y4fff\yy	.	(4fff\	.
8GG/L	.	8GG/Lyy	.	.	.	.	.	.	.	.	.	.	.	.	8GG/L	.	.	.	.	.	8G\L 8GG\	.	.	.	.	.	.	.	.	.	.	.	.	.	.
8C/J	.	8C/Jyy	.	8c\)	.	8e-/ 8G/)	.	8ee-\)	.	.	.	.	.	.	8C/J	.	8e-\ 8c\)	.	8e-/)	.	8c\J 8C\	.	8gg/] 8g/]	.	8cc\)	.	8cc/ 8e-/)	.	8ee-/	8cc\	.	8eee-\)yy	.	8eee-\)	.
8r	.	8ryy	.	8r	.	8r	.	8r	.	.	.	.	.	.	8r	.	8r	.	8r	.	8r	.	8r	.	8r	.	8r	.	8r	8r	.	8ryy	.	8r	.
*	*	*	*	*	*	*	*	*	*	*	*	*	*	*	*	*	*	*	*	*	*	*	*	*	*	*	*	*	*v	*v	*	*	*	*	*
=51	=51	=51	=51	=51	=51	=51	=51	=51	=51	=51	=51	=51	=51	=51	=51	=51	=51	=51	=51	=51	=51	=51	=51	=51	=51	=51	=51	=51	=51	=51	=51	=51	=51	=51
8E-\L	.	8E-\Lyy	.	8B-/L 8F/	.	8d/L	.	(16ddd\LL	.	8BB-/L	.	2.r	2.r	.	8E-\L	.	8d\L 8B-\	.	(16dd/LL	.	8E-\L	.	8ff/L 8b-/	.	8dd\L 8b-\	.	(16dd\LL	.	8bb-\L 8dd\	.	(y16ddd\LLyy	.	(16ddd\LL	.
.	.	.	.	.	.	.	.	16ccc\)	.	.	.	.	.	.	.	.	.	.	16cc/)	.	.	.	.	.	.	.	16cc\)	.	.	.	16ccc\)yy	.	16ccc\)	.
8En\J	.	8En\Jyy	.	8B-/J 8G/	.	8c#X/J	.	16bb-'\	.	8BB-/	.	.	.	.	8En\J	.	8c#X\J 8B-\	.	16b-'/	.	8En\J	.	8gg/J 8b-/	.	8cc#X\J 8b-\	.	16b-'\	.	8bb-\J 8cc#X\	.	16bb-'\yy	.	16bb-'\	.
.	.	.	.	.	.	.	.	16gg'\JJ	.	.	.	.	.	.	.	.	.	.	16g'/JJ	.	.	.	.	.	.	.	16g'\JJ	.	.	.	16gg'\JJyy	.	16gg'\JJ	.
8F\	.	8F\yy	.	8B-/ 8F/	.	8d/	.	8ff\	.	8BB-/J	.	.	.	.	8F\	.	8d\L 8B-\	.	8f/L	.	8F\L	.	8ff/L 8b-/	.	8dd\L 8b-\	.	8f'/L	.	8bb-\ 8dd\	.	8ff/yy	.	8ff\	.
8r	.	8ryy	.	8r	.	8r	.	8r	.	8r	.	.	.	.	16BB-/LL	.	16B-\L	.	16b-/L 16B-/	.	16B-\L	.	16b-/L	.	16b-\L	.	16b-'/L	.	8r	.	8ryy	.	8r	.
.	.	.	.	.	.	.	.	.	.	.	.	.	.	.	16D/JJ	.	16d\JJ	.	16dd/JJ 16d/	.	16d\JJ	.	16dd/JJ	.	16dd\JJ	.	16dd'/JJ	.	.	.	.	.	.	.
4r	.	4ryy	.	4r	.	4r	.	4r	.	4r	.	.	.	.	8F/L	.	8f\L	.	8ff/L 8f/	.	8f\L	.	8ff/L	.	8ff\L	.	8ff'\L	.	4r	.	4ryy	.	4r	.
.	.	.	.	.	.	.	.	.	.	.	.	.	.	.	16BB-/L	.	16B-\L	.	16b-/L 16B-/	.	16B-\L	.	16b-/L	.	16b-\L	.	16b-'\L	.	.	.	.	.	.	.
.	.	.	.	.	.	.	.	.	.	.	.	.	.	.	16D/JJ	.	16d\JJ	.	16dd/JJ 16d/	.	16d\JJ	.	16dd/JJ	.	16dd\JJ	.	16dd'\JJ	.	.	.	.	.	.	.
=52	=52	=52	=52	=52	=52	=52	=52	=52	=52	=52	=52	=52	=52	=52	=52	=52	=52	=52	=52	=52	=52	=52	=52	=52	=52	=52	=52	=52	=52	=52	=52	=52	=52	=52
*	*	*	*	*	*	*	*	*	*	*	*	*	*	*	*	*	*	*	*	*	*	*	*^	*	*	*	*	*	*	*	*	*	*	*
4r	.	4ryy	.	4r	.	4r	.	4r	.	2.r	.	2.r	2.r	.	4F\	.	4f\	.	4ff\ 4f\	.	4f\	.	4ff\	4ff/	.	4ff\	.	4ff\	.	4r	.	4ryy	.	4r	.
8r	.	8ryy	.	8r	.	8r	.	8r	.	.	.	.	.	.	4r	.	4r	.	4r	.	8r	.	4r	4ryy	.	8r	.	8r	.	8r	.	8ryy	.	8r	.
(16F\LL	.	(y16F\LLyy	.	(16f\LL	.	(16ff\LL	.	(16ff\LL	.	.	.	.	.	.	.	.	.	.	.	.	(8f\L 8F\	.	.	.	.	8ff\L	.	(16ff\LL	.	(16ff\LL	.	(y16fff\LLyy	.	(16fff\LL	.
32G\L	.	32G\Lyy	.	32g\L	.	32gg\L	.	32gg\L	.	.	.	.	.	.	.	.	.	.	.	.	.	.	.	.	.	.	.	32gg\L	.	32gg\L	.	32ggg\Lyy	.	32ggg\L	.
32F\JJJ	.	32F\JJJyy	.	32f\JJJ	.	32ff\JJJ	.	32ff\JJJ	.	.	.	.	.	.	.	.	.	.	.	.	.	.	.	.	.	.	.	32ff\JJJ	.	32ff\JJJ	.	32fff\JJJyy	.	32fff\JJJ	.
8E-\L)	.	8E-\L)yy	.	8e-\L)	.	8ee-\L)	.	8ee-\L)	.	.	.	.	.	.	4r	.	4r	.	4r	.	8e-\ 8E-\)	.	4r	4ryy	.	8ee-\	.	8ee-\L)	.	8ee-\L)	.	8eee-\L)yy	.	8eee-\L)	.
8C'\J	.	8C'\Jyy	.	8c'\J	.	8cc'\J	.	8cc'\J	.	.	.	.	.	.	.	.	.	.	.	.	8c\J 8C'\	.	.	.	.	8cc\J	.	8cc'\J	.	8cc'\J	.	8ccc'\Jyy	.	8ccc'\J	.
*	*	*	*	*	*	*	*	*	*	*	*	*	*	*	*	*	*	*	*	*	*	*	*v	*v	*	*	*	*	*	*	*	*	*	*	*
=53	=53	=53	=53	=53	=53	=53	=53	=53	=53	=53	=53	=53	=53	=53	=53	=53	=53	=53	=53	=53	=53	=53	=53	=53	=53	=53	=53	=53	=53	=53	=53	=53	=53	=53
*	*	*	*	*	*	*	*	*	*	*	*	*	*	*	*	*	*	*	*	*	*	*	*	*	*^	*	*	*	*	*	*	*	*	*
8BB-/	.	8BB-/yy	.	8B-/	.	8b-\	.	8b-\	.	4r	.	2.r	2.r	.	4r	.	4r	.	4r	.	8B-\ 8BB-\	.	4r	.	8b-/	4rByy	.	8b-\	.	8b-\	.	8bb-\yy	.	8bb-\	.
8r	.	8ryy	.	8r	.	8r	.	8r	.	.	.	.	.	.	.	.	.	.	.	.	8r	.	.	.	8r	.	.	8r	.	8r	.	8ryy	.	8r	.
4BB-/	.	4BB-/yy	.	4dd\ 4f\ 4B-\	.	4bb-\ 4b-\ 4d\	.	4bb-\ 4b-\ 4d\	.	4BB-/	.	.	.	.	4B-\ 4BB-\	.	4d/ 4F/	.	4b-/ 4d/	.	4B-\ 4BB-\	.	4ff/ 4b-/	.	4dd/	4b-\	.	4ff\ 4b-\	.	4bb-\ 4dd\	.	4bb-\yy	.	4bb-\	.
4r	.	4ryy	.	4r	.	4r	.	4r	.	4r	.	.	.	.	4r	.	4r	.	4r	.	4r	.	4r	.	4r	4rByy	.	4r	.	4r	.	4ryy	.	4r	.
*	*	*	*	*	*	*	*	*	*	*	*	*	*	*	*	*	*	*	*	*	*	*	*	*	*v	*v	*	*	*	*	*	*	*	*	*
==	==	==	==	==	==	==	==	==	==	==	==	==	==	==	==	==	==	==	==	==	==	==	==	==	==	==	==	==	==	==	==	==	==	==
*-	*-	*-	*-	*-	*-	*-	*-	*-	*-	*-	*-	*-	*-	*-	*-	*-	*-	*-	*-	*-	*-	*-	*-	*-	*-	*-	*-	*-	*-	*-	*-	*-	*-	*-
!!!system-decoration: [({s1,s2},s3,s4,{s5,s6},s7,s8,{s9,s10},<{s11,s12}>,s13,{s14,s15},s16,{s17,s18})]
!!!RDF**kern: | = vertical stroke
!!!RDF**kern: > = above
!!!RDF**kern: < = below
!!!EED: Andrzej Borzym
!!!EST: 2021-06-28
!!!ENC: Mateusz Solarz
!!!END: 2021-06-22
